N0010 (Filename: 0.ngc)
N0020 (Post processor: LinuxCNC plasma - BadApple.scpost)
N0030 (Date: 24/09/18)
N0040 G20 (Units: Inches)
N0050 G40 G90
N0060 G64 P0.001 
N0070 F1 S1
N0080 (Part: default[3])
N0090 (Operation: Inside Offset, 0, T1: Plasma, 0.039 inch kerf)
N0100 G00 Z0.8000
N0110 X9.5772 Y2.1597
N0120 Z0.6800
N0130 o<touchoff> call [0.1800]  [0.5]  [0.1500] 
N0140 F3.937
N0150 G01 Z0.1500
N0160 X9.6717 Y2.2415 F75
N0170 X9.6718 Y2.2414
N0180 G02 X9.9717 Y1.4179 I-0.9159 J-0.7999 F75.0
N0190 G01 Y1.4173 F75
N0200 G02 X9.9024 Y0.9844 I-1.3079 J-0.0128 F75.0
N0210 X9.6720 Y0.5962 I-1.0739 J0.3750
N0220 X8.9372 Y0.2290 I-0.8208 J0.7238
N0230 G01 Y0.4764 F75
N0240 G03 X9.0694 Y0.5843 I-0.1283 J0.2921 F75.0
N0250 X9.1293 Y0.6934 I-0.4113 J0.2969
N0260 X9.1568 Y0.7736 I-0.7027 J0.2854
N0270 X9.1919 Y0.9382 I-1.3414 J0.3722
N0280 X9.2133 Y1.1298 I-2.3512 J0.3592
N0290 X9.2225 Y1.3458 I-3.7487 J0.2687
N0300 G01 X9.2232 Y1.4245 F75
N0310 G03 X9.2131 Y1.7139 I-3.8063 J0.0120 F75.0
N0320 X9.1806 Y1.9629 I-2.1232 J-0.1502
N0330 X9.1211 Y2.1665 I-1.0331 J-0.1915
N0340 X9.0165 Y2.3256 I-0.4242 J-0.1649
N0350 G01 X9.0162 Y2.3259 F75
N0360 G03 X8.9372 Y2.3776 I-0.1843 J-0.1954 F75.0
N0370 G01 Y2.6246 F75
N0380 G02 X9.6668 Y2.2472 I-0.0914 J-1.0705 F75.0
N0390 G01 X9.6717 Y2.2415 F75
N0400 G02 X9.6636 Y2.1286 I-0.0605 J-0.0524 F75.0
N0410 M05
N0420 G04 P1
N0430 G00 Z0.8000
N0440 X8.3496 Y2.0899
N0450 Z0.6800
N0460 o<touchoff> call [0.1800]  [0.5]  [0.1500] 
N0470 F3.937
N0480 G01 Z0.1500
N0490 X8.4704 Y2.0579 F75
N0500 G03 X8.4275 Y1.8303 I1.5425 J-0.4088 F75.0
N0510 X8.4081 Y1.5630 I2.9679 J-0.3491
N0520 G01 X8.4060 Y1.4246 F75
N0530 G03 X8.4122 Y1.1862 I4.2943 J-0.0082 F75.0
N0540 X8.4303 Y0.9858 I2.7232 J0.1443
N0550 X8.4620 Y0.8113 I1.6079 J0.2021
N0560 G01 X8.4621 Y0.8109 F75
N0570 X8.4712 Y0.7761
N0580 G03 X8.5158 Y0.6564 I0.6735 J0.1828 F75.0
N0590 X8.5892 Y0.5482 I0.3902 J0.1856
N0600 X8.6896 Y0.4765 I0.2280 J0.2132
N0610 G01 Y0.2290 F75
N0620 G02 X7.9550 Y0.5960 I0.0859 J1.0907 F75.0
N0630 X7.6579 Y1.3268 I0.8674 J0.7785
N0640 G01 X7.6552 Y1.4180 F75
N0650 G02 X7.9551 Y2.2414 I1.2158 J0.0235 F75.0
N0660 X8.6896 Y2.6245 I0.8354 J-0.7061
N0670 G01 Y2.3772 F75
N0680 G03 X8.5432 Y2.2389 I0.1294 J-0.2837 F75.0
N0690 X8.4704 Y2.0579 I0.6502 J-0.3667
N0700 G02 X8.3726 Y2.0010 I-0.0773 J0.0205
N0710 M05
N0720 G04 P1
N0730 G00 Z0.8000
N0740 X6.5273 Y2.4964
N0750 Z0.6800
N0760 o<touchoff> call [0.1800]  [0.5]  [0.1500] 
N0770 F3.937
N0780 G01 Z0.1500
N0790 X6.5379 Y2.6209 F75
N0800 G02 X6.6513 Y2.6041 I-0.0776 J-0.9129 F75.0
N0810 X6.7268 Y2.5827 I-0.1276 J-0.5949
N0820 X6.9247 Y2.4479 I-0.1503 J-0.4331
N0830 X7.0281 Y2.2632 I-0.4446 J-0.3701
N0840 X7.0734 Y2.0691 I-0.9164 J-0.3161
N0850 X7.0865 Y1.8582 I-1.5643 J-0.2032
N0860 G01 Y0.7449 F75
N0870 Y0.7444
N0880 X7.0883 Y0.6764
N0890 Y0.6751
N0900 X7.0936 Y0.6187
N0910 G03 X7.0939 Y0.6167 I0.0194 J0.0018 F75.0
N0920 G01 X7.1030 Y0.5709 F75
N0930 X7.1032 Y0.5699
N0940 G03 X7.1187 Y0.5307 I0.1656 J0.0430 F75.0
N0950 G01 X7.1196 Y0.5292 F75
N0960 X7.1262 Y0.5195
N0970 G03 X7.1276 Y0.5176 I0.0162 J0.0109 F75.0
N0980 G01 X7.1473 Y0.4950 F75
N0990 G03 X7.1489 Y0.4934 I0.0147 J0.0128 F75.0
N1000 G01 X7.1684 Y0.4756 F75
N1010 G03 X7.1711 Y0.4735 I0.0131 J0.0144 F75.0
N1020 G01 X7.1912 Y0.4608 F75
N1030 G03 X7.1942 Y0.4592 I0.0104 J0.0165 F75.0
N1040 G01 X7.2017 Y0.4561 F75
N1050 G03 X7.2037 Y0.4554 I0.0074 J0.0180 F75.0
N1060 G01 X7.2478 Y0.4426 F75
N1070 X7.2490 Y0.4423
N1080 X7.2706 Y0.4375
N1090 G02 X7.3280 Y0.4199 I-0.0756 J-0.3487 F75.0
N1100 X7.3816 Y0.3901 I-0.0887 J-0.2224
N1110 G01 X7.3888 Y0.3841 F75
N1120 Y0.2628
N1130 X6.4294
N1140 Y1.9194
N1150 X6.4280 Y2.0160
N1160 X6.4279 Y2.0168
N1170 X6.4235 Y2.0978
N1180 X6.4234 Y2.0989
N1190 X6.4165 Y2.1615
N1200 X6.4164 Y2.1620
N1210 G03 X6.4051 Y2.2160 I-0.4231 J-0.0599 F75.0
N1220 G01 X6.4048 Y2.2172 F75
N1230 X6.3979 Y2.2372
N1240 X6.3977 Y2.2376
N1250 G03 X6.3557 Y2.3113 I-0.2455 J-0.0909 F75.0
N1260 X6.2142 Y2.3828 I-0.1531 J-0.1273
N1270 G01 X6.1904 Y2.3839 F75
N1280 X6.1896
N1290 G03 X6.0685 Y2.3544 I0.0004 J-0.2646 F75.0
N1300 G01 Y2.5382 F75
N1310 G02 X6.4133 Y2.6261 I0.3410 J-0.6168 F75.0
N1320 X6.5378 Y2.6210 I0.0040 J-1.4013
N1330 G01 X6.5379 Y2.6209 F75
N1340 G02 X6.6108 Y2.5345 I-0.0068 J-0.0797 F75.0
N1350 M05
N1360 G04 P1
N1370 G00 Z0.8000
N1380 X5.1732 Y2.5011
N1390 Z0.6800
N1400 o<touchoff> call [0.1800]  [0.5]  [0.1500] 
N1410 F3.937
N1420 G01 Z0.1500
N1430 X5.1725 Y2.6261 F75
N1440 G02 X5.3499 Y2.6140 I0.0065 J-1.2079 F75.0
N1450 X5.5122 Y2.5721 I-0.1020 J-0.7304
N1460 X5.6650 Y2.4758 I-0.1608 J-0.4247
N1470 X5.7733 Y2.3022 I-0.3225 J-0.3216
N1480 X5.8110 Y2.1363 I-0.7033 J-0.2472
N1490 X5.8185 Y2.0012 I-1.1404 J-0.1313
N1500 G01 Y0.6371 F75
N1510 G03 X5.8249 Y0.5739 I0.2920 J-0.0025 F75.0
N1520 X5.8557 Y0.5037 I0.1794 J0.0368
N1530 X5.9139 Y0.4555 I0.1287 J0.0959
N1540 G01 X5.9146 Y0.4551 F75
N1550 X5.9741 Y0.4290
N1560 X5.9752 Y0.4285
N1570 X5.9967 Y0.4206
N1580 G02 X6.0602 Y0.3882 I-0.0918 J-0.2582 F75.0
N1590 G01 X6.0670 Y0.3833 F75
N1600 Y0.2628
N1610 X5.1591
N1620 Y1.9194
N1630 X5.1576 Y2.0135
N1640 Y2.0143
N1650 X5.1529 Y2.0979
N1660 X5.1528 Y2.0991
N1670 X5.1448 Y2.1660
N1680 X5.1447 Y2.1667
N1690 G03 X5.1325 Y2.2208 I-0.3975 J-0.0614 F75.0
N1700 G01 X5.1322 Y2.2216 F75
N1710 X5.1275 Y2.2349
N1720 X5.1271 Y2.2360
N1730 G03 X5.0835 Y2.3088 I-0.2706 J-0.1128 F75.0
N1740 X4.9166 Y2.3839 I-0.1598 J-0.1320
N1750 X4.7911 Y2.3513 I-0.0006 J-0.2561
N1760 G01 Y2.5093 F75
N1770 G02 X5.0674 Y2.6193 I0.3471 J-0.4701 F75.0
N1780 X5.1724 Y2.6261 I0.1033 J-0.7740
N1790 G01 X5.1725 F75
N1800 G02 X5.2529 Y2.5466 I0.0004 J-0.0800 F75.0
N1810 M05
N1820 G04 P1
N1830 G00 Z0.8000
N1840 X3.9994 Y2.2407
N1850 Z0.6800
N1860 o<touchoff> call [0.1800]  [0.5]  [0.1500] 
N1870 F3.937
N1880 G01 Z0.1500
N1890 X3.8767 Y2.2167 F75
N1900 X3.8677 Y2.2630
N1910 X3.8674 Y2.2641
N1920 G03 X3.8521 Y2.3035 I-0.1686 J-0.0428 F75.0
N1930 X3.8510 Y2.3053 I-0.0172 J-0.0092
N1940 G01 X3.8432 Y2.3168 F75
N1950 G03 X3.8414 Y2.3190 I-0.0161 J-0.0110 F75.0
N1960 G01 X3.8220 Y2.3401 F75
N1970 G03 X3.8204 Y2.3417 I-0.0143 J-0.0132 F75.0
N1980 G01 X3.8013 Y2.3581 F75
N1990 G03 X3.7985 Y2.3601 I-0.0127 J-0.0148 F75.0
N2000 G01 X3.7789 Y2.3718 F75
N2010 G03 X3.7755 Y2.3734 I-0.0100 J-0.0168 F75.0
N2020 G01 X3.7657 Y2.3769 F75
N2030 X3.7642 Y2.3774
N2040 G03 X3.6989 Y2.3907 I-0.1430 J-0.5341 F75.0
N2050 G02 X3.6538 Y2.4023 I0.0556 J0.3092
N2060 X3.6139 Y2.4211 I0.0603 J0.1800
N2070 X3.5888 Y2.4419 I0.0626 J0.1008
N2080 G01 Y2.5793 F75
N2090 X4.5435
N2100 Y0.6653
N2110 G03 X4.5590 Y0.5779 I0.2358 J-0.0033 F75.0
N2120 G01 X4.5592 Y0.5775 F75
N2130 G03 X4.6432 Y0.4794 I0.1889 J0.0766 F75.0
N2140 G01 X4.6437 Y0.4791 F75
N2150 X4.6684 Y0.4653
N2160 G03 X4.6706 Y0.4643 I0.0095 J0.0170 F75.0
N2170 G01 X4.7327 Y0.4394 F75
N2180 X4.7340 Y0.4389
N2190 X4.7879 Y0.4216
N2200 X4.7884 Y0.4215
N2210 G02 X4.9001 Y0.3822 I-0.3096 J-1.0586 F75.0
N2220 G01 X4.9045 Y0.3803 F75
N2230 Y0.2628
N2240 X3.5560
N2250 Y0.3820
N2260 G02 X3.6504 Y0.4201 I0.1997 J-0.3587 F75.0
N2270 G03 X3.7273 Y0.4444 I-0.2124 J0.8060
N2280 G01 X3.7278 Y0.4446 F75
N2290 X3.7595 Y0.4573
N2300 G03 X3.8470 Y0.5276 I-0.0758 J0.1838 F75.0
N2310 G01 X3.8472 Y0.5280 F75
N2320 G03 X3.8803 Y0.6147 I-0.1783 J0.1175 F75.0
N2330 X3.8841 Y0.6652 I-0.3120 J0.0491
N2340 G01 Y2.0855 F75
N2350 Y2.0860
N2360 X3.8824 Y2.1554
N2370 X3.8823 Y2.1567
N2380 X3.8770 Y2.2148
N2390 G02 X3.9494 Y2.3017 I0.0797 J0.0073 F75.0
N2400 M05
N2410 G04 P1
N2420 G00 Z0.8000
N2430 X2.7015 Y3.0805
N2440 Z0.6800
N2450 o<touchoff> call [0.1800]  [0.5]  [0.1500] 
N2460 F3.937
N2470 G01 Z0.1500
N2480 X2.5881 Y3.1329 F75
N2490 G03 X2.6039 Y3.1767 I-0.2471 J0.1143 F75.0
N2500 X2.6091 Y3.2137 I-0.1445 J0.0391
N2510 G01 X2.6090 Y3.2154 F75
N2520 X2.6068 Y3.2462
N2530 X2.6066 Y3.2477
N2540 G03 X2.5972 Y3.2807 I-0.1346 J-0.0205 F75.0
N2550 X2.5733 Y3.3141 I-0.0868 J-0.0369
N2560 X2.5265 Y3.3460 I-0.1574 J-0.1803
N2570 G01 X2.5255 Y3.3465 F75
N2580 X2.4969 Y3.3595
N2590 X2.4951 Y3.3602
N2600 X2.4392 Y3.3793
N2610 X2.4381 Y3.3797
N2620 X2.4015 Y3.3898
N2630 X2.4010 Y3.3899
N2640 G02 X2.3292 Y3.4160 I0.0920 J0.3650 F75.0
N2650 G01 X2.3232 Y3.4192 F75
N2660 Y3.5543
N2670 X3.3764
N2680 Y3.4163
N2690 G02 X3.2898 Y3.3915 I-0.2514 J0.7132 F75.0
N2700 G01 X3.2723 Y3.3878 F75
N2710 G03 X3.1431 Y3.3507 I0.1763 J-0.8579 F75.0
N2720 X2.9736 Y3.2515 I0.1734 J-0.4907
N2730 X2.8922 Y3.1581 I0.3255 J-0.3661
N2740 G01 X2.3444 Y2.3467 F75
N2750 X2.2120 Y2.5654
N2760 X2.5307 Y3.0355
N2770 X2.5310 Y3.0358
N2780 X2.5634 Y3.0860
N2790 X2.5642 Y3.0875
N2800 X2.5876 Y3.1321
N2810 G02 X2.6956 Y3.1657 I0.0708 J-0.0372 F75.0
N2820 M05
N2830 G04 P1
N2840 G00 Z0.8000
N2850 X2.9900 Y0.6365
N2860 Z0.6800
N2870 o<touchoff> call [0.1800]  [0.5]  [0.1500] 
N2880 F3.937
N2890 G01 Z0.1500
N2900 X3.0978 Y0.6998 F75
N2910 G03 X3.4163 Y0.4426 I0.5002 J0.2936 F75.0
N2920 G01 X3.4296 Y0.4381 F75
N2930 G02 X3.4874 Y0.4146 I-0.1490 J-0.4508 F75.0
N2940 G01 X3.5053 Y0.4051 F75
N2950 Y0.2628
N2960 X2.0114
N2970 Y0.3998
N2980 G02 X2.1030 Y0.4317 I0.1980 J-0.4211 F75.0
N2990 G01 X2.1558 Y0.4450 F75
N3000 X2.1565 Y0.4452
N3010 X2.2037 Y0.4590
N3020 X2.2042 Y0.4591
N3030 G03 X2.2513 Y0.4797 I-0.0807 J0.2493 F75.0
N3040 X2.2949 Y0.5151 I-0.0761 J0.1383
N3050 X2.3232 Y0.5952 I-0.0931 J0.0779
N3060 X2.3150 Y0.6493 I-0.2149 J-0.0049
N3070 X2.2936 Y0.7106 I-0.4685 J-0.1293
N3080 G01 X2.2933 Y0.7113 F75
N3090 X2.2611 Y0.7797
N3100 X2.2605 Y0.7808
N3110 X2.2179 Y0.8576
N3120 X2.2176 Y0.8582
N3130 X2.2008 Y0.8862
N3140 X0.9726 Y2.9230
N3150 X0.9004 Y3.0409
N3160 X0.8380 Y3.1385
N3170 X0.8376 Y3.1390
N3180 X0.7863 Y3.2141
N3190 X0.7857 Y3.2149
N3200 X0.7453 Y3.2680
N3210 X0.7450 Y3.2684
N3220 G03 X0.7123 Y3.3027 I-0.2099 J-0.1672 F75.0
N3230 G01 X0.7111 Y3.3037 F75
N3240 X0.7052 Y3.3081
N3250 X0.7038 Y3.3090
N3260 X0.6668 Y3.3322
N3270 X0.6656 Y3.3329
N3280 X0.6305 Y3.3515
N3290 X0.6289 Y3.3522
N3300 X0.6026 Y3.3632
N3310 X0.6017 Y3.3636
N3320 G03 X0.5136 Y3.3889 I-0.2331 J-0.6447 F75.0
N3330 G02 X0.4482 Y3.4103 I0.0673 J0.3167
N3340 G01 Y3.5543 F75
N3350 X1.9185
N3360 Y3.4205
N3370 G02 X1.8284 Y3.3928 I-0.2226 J0.5637 F75.0
N3380 G01 X1.8212 Y3.3912 F75
N3390 X1.7678 Y3.3789
N3400 X1.7669 Y3.3787
N3410 X1.7191 Y3.3651
N3420 G03 X1.6752 Y3.3472 I0.0722 J-0.2403 F75.0
N3430 X1.6360 Y3.3180 I0.0681 J-0.1322
N3440 X1.6068 Y3.2429 I0.0771 J-0.0732
N3450 X1.6072 Y3.2394 I0.0195 J0.0004
N3460 G01 X1.6114 Y3.2188 F75
N3470 G03 X1.6123 Y3.2155 I0.0191 J0.0038 F75.0
N3480 G01 X1.6242 Y3.1853 F75
N3490 X1.6248 Y3.1839
N3500 X1.6435 Y3.1455
N3510 X1.6439 Y3.1448
N3520 X1.6706 Y3.0955
N3530 X1.6709 Y3.0950
N3540 X1.7104 Y3.0271
N3550 X3.0978 Y0.6998
N3560 G02 X3.0693 Y0.5903 I-0.0690 J-0.0405 F75.0
N3570 M05
N3580 G04 P1
N3590 G00 Z0.8000
N3600 X1.1005 Y0.7816
N3610 Z0.6800
N3620 o<touchoff> call [0.1800]  [0.5]  [0.1500] 
N3630 F3.937
N3640 G01 Z0.1500
N3650 X1.2135 Y0.7280 F75
N3660 X1.1903 Y0.6791
N3670 X1.1899 Y0.6783
N3680 G03 X1.1760 Y0.6347 I0.2347 J-0.0990 F75.0
N3690 X1.1757 Y0.6326 I0.0190 J-0.0042
N3700 G01 X1.1733 Y0.6123 F75
N3710 G03 X1.1733 Y0.6085 I0.0194 J-0.0022 F75.0
N3720 G01 X1.1760 Y0.5754 F75
N3730 X1.1762 Y0.5738
N3740 G03 X1.1884 Y0.5364 I0.1324 J0.0224 F75.0
N3750 X1.2128 Y0.5051 I0.0908 J0.0457
N3760 X1.2586 Y0.4748 I0.1490 J0.1757
N3770 X1.3028 Y0.4568 I0.1383 J0.2751
N3780 G01 X1.3033 Y0.4566 F75
N3790 X1.3695 Y0.4375
N3800 X1.3704 Y0.4372
N3810 X1.4136 Y0.4270
N3820 G02 X1.5084 Y0.3951 I-0.0959 J-0.4422 F75.0
N3830 G01 Y0.2628 F75
N3840 X0.3779
N3850 Y0.3949
N3860 G02 X0.4349 Y0.4165 I0.2197 J-0.4934 F75.0
N3870 G01 X0.4724 Y0.4272 F75
N3880 G03 X0.5618 Y0.4551 I-0.2306 J0.8964 F75.0
N3890 G01 X0.5974 Y0.4689 F75
N3900 X0.5979 Y0.4691
N3910 G03 X0.8104 Y0.6262 I-0.2140 J0.5118 F75.0
N3920 X0.8549 Y0.6847 I-0.5316 J0.4506
N3930 G01 X1.5012 Y1.6370 F75
N3940 X1.6478 Y1.3968
N3950 X1.2841 Y0.8444
N3960 X1.2475 Y0.7873
N3970 X1.2470 Y0.7865
N3980 X1.2142 Y0.7294
N3990 G02 X1.1050 Y0.6998 I-0.0694 J0.0398 F75.0
N4000 M05
N4010 G04 P1
N4020 G00 Z0.8000
N4030 X10.8961 Y0.3926
N4040 Z0.6800
N4050 o<touchoff> call [0.1800]  [0.5]  [0.1500] 
N4060 F3.937
N4070 G01 Z0.1500
N4080 X10.8588 Y0.2733 F75
N4090 G02 X10.7086 Y0.3485 I0.1554 J0.4978 F75.0
N4100 G01 X10.7004 Y0.3548 F75
N4110 G02 X10.5727 Y0.5413 I0.2412 J0.3022 F75.0
N4120 X10.5433 Y0.6918 I0.6031 J0.1961
N4130 G01 X10.5403 Y0.7663 F75
N4140 Y2.3410
N4150 G03 X10.5208 Y2.3605 I-0.0195 J0.0000 F75.0
N4160 G01 X10.2286 F75
N4170 Y2.5205
N4180 G02 X10.2793 Y2.5555 I0.1299 J-0.1336 F75.0
N4190 G01 X10.3063 Y2.5665 F75
N4200 X10.4173 Y2.6062
N4210 G03 X10.5033 Y2.6505 I-0.1285 J0.3547 F75.0
N4220 X10.6049 Y2.7869 I-0.1476 J0.2160
N4230 G01 X10.6564 Y2.9242 F75
N4240 X10.7030 Y3.0386
N4250 X10.7458 Y3.1324
N4260 G02 X10.7822 Y3.1994 I0.7390 J-0.3587 F75.0
N4270 G01 X10.7970 Y3.2215 F75
N4280 X10.8464 Y3.2881
N4290 X10.8894 Y3.3423
N4300 X10.9143 Y3.3716
N4310 X11.1998 Y3.3758
N4320 Y0.2276
N4330 G02 X11.0231 Y0.2379 I-0.0057 J1.4316 F75.0
N4340 X10.8589 Y0.2732 I0.1029 J0.8761
N4350 G01 X10.8588 Y0.2733 F75
N4360 G02 X10.8063 Y0.3735 I0.0238 J0.0764 F75.0
N4370 M05
N4380 G04 P1
N4390 G00 Z0.8000
N4400 X11.7128 Y0.4244
N4410 Z0.6800
N4420 o<touchoff> call [0.1800]  [0.5]  [0.1500] 
N4430 F3.937
N4440 G01 Z0.1500
N4450 X11.6410 Y0.5268 F75
N4460 G03 X11.7116 Y0.6009 I-0.1484 J0.2118 F75.0
N4470 X11.7512 Y0.6840 I-0.3991 J0.2411
N4480 G01 X11.7514 Y0.6847 F75
N4490 X11.7652 Y0.7284
N4500 X11.7654 Y0.7292
N4510 G02 X11.8009 Y0.8480 I2.4511 J-0.6660 F75.0
N4520 G01 X11.9561 Y0.7867 F75
N4530 G02 X11.9288 Y0.6788 I-1.8883 J0.4191 F75.0
N4540 X11.8937 Y0.5735 I-1.1244 J0.3168
N4550 X11.8526 Y0.4867 I-0.5937 J0.2278
N4560 X11.8184 Y0.4375 I-0.2937 J0.1677
N4570 X11.7489 Y0.3657 I-0.5591 J0.4719
N4580 X11.6667 Y0.3052 I-0.3413 J0.3776
N4590 G01 X11.6450 Y0.2934 F75
N4600 G02 X11.5525 Y0.2565 I-0.2678 J0.5364 F75.0
N4610 X11.4507 Y0.2318 I-0.2551 J0.8304
N4620 G01 X11.4474 Y0.2312 F75
N4630 Y0.4701
N4640 G03 X11.5297 Y0.4799 I-0.0157 J0.4820 F75.0
N4650 X11.6408 Y0.5266 I-0.0600 J0.2984
N4660 G01 X11.6410 Y0.5268 F75
N4670 G02 X11.7525 Y0.5071 I0.0459 J-0.0655 F75.0
N4680 M05
N4690 G04 P1
N4700 G00 Z0.8000
N4710 X13.0615 Y0.3504
N4720 Z0.6800
N4730 o<touchoff> call [0.1800]  [0.5]  [0.1500] 
N4740 F3.937
N4750 G01 Z0.1500
N4760 X13.1137 Y0.4640 F75
N4770 X13.1377 Y0.4529
N4780 X13.1386 Y0.4525
N4790 G03 X13.2138 Y0.4267 I0.3087 J0.7756 F75.0
N4800 G01 X13.2417 Y0.4190 F75
N4810 G02 X13.3279 Y0.3825 I-0.0812 J-0.3124 F75.0
N4820 G01 Y0.2628 F75
N4830 X12.0474
N4840 Y0.3828
N4850 G02 X12.1312 Y0.4189 I0.1566 J-0.2477 F75.0
N4860 G03 X12.2067 Y0.4421 I-0.2266 J0.8741
N4870 G01 X12.2071 Y0.4422 F75
N4880 X12.2341 Y0.4525
N4890 G03 X12.3007 Y0.4938 I-0.0760 J0.1965 F75.0
N4900 G01 X12.3010 Y0.4941 F75
N4910 G03 X12.3542 Y0.6006 I-0.1223 J0.1277 F75.0
N4920 G01 X12.3543 Y0.6015 F75
N4930 X12.3567 Y0.6357
N4940 X12.3568 Y0.6370
N4950 Y2.1908
N4960 G03 X12.3473 Y2.2607 I-0.2408 J0.0029 F75.0
N4970 X12.2424 Y2.3724 I-0.1633 J-0.0483
N4980 G01 X12.2342 Y2.3755 F75
N4990 G03 X12.1580 Y2.4010 I-0.2660 J-0.6689 F75.0
N5000 G01 X12.1308 Y2.4080 F75
N5010 G02 X12.0474 Y2.4448 I0.0578 J0.2440 F75.0
N5020 G01 Y2.5793 F75
N5030 X13.0138
N5040 Y0.6372
N5050 G03 X13.0259 Y0.5621 I0.2212 J-0.0030 F75.0
N5060 X13.1132 Y0.4642 I0.1662 J0.0604
N5070 G02 X13.1492 Y0.3570 I-0.0356 J-0.0716
N5080 M05
N5090 G04 P1
N5100 G00 Z0.8000
N5110 X14.2980 Y2.0899
N5120 Z0.6800
N5130 o<touchoff> call [0.1800]  [0.5]  [0.1500] 
N5140 F3.937
N5150 G01 Z0.1500
N5160 X14.4188 Y2.0579 F75
N5170 G03 X14.3759 Y1.8303 I1.5425 J-0.4088 F75.0
N5180 X14.3566 Y1.5630 I2.9679 J-0.3491
N5190 G01 X14.3545 Y1.4246 F75
N5200 G03 X14.3606 Y1.1862 I4.2943 J-0.0082 F75.0
N5210 X14.3787 Y0.9858 I2.7232 J0.1443
N5220 X14.4104 Y0.8113 I1.6079 J0.2021
N5230 G01 X14.4105 Y0.8109 F75
N5240 X14.4196 Y0.7761
N5250 G03 X14.4642 Y0.6564 I0.6735 J0.1828 F75.0
N5260 X14.5376 Y0.5482 I0.3902 J0.1856
N5270 X14.6381 Y0.4765 I0.2280 J0.2132
N5280 G01 Y0.2290 F75
N5290 G02 X13.9034 Y0.5960 I0.0859 J1.0907 F75.0
N5300 X13.6063 Y1.3268 I0.8674 J0.7785
N5310 G01 X13.6036 Y1.4180 F75
N5320 G02 X13.9035 Y2.2414 I1.2158 J0.0235 F75.0
N5330 X14.6381 Y2.6245 I0.8354 J-0.7061
N5340 G01 Y2.3772 F75
N5350 G03 X14.4917 Y2.2389 I0.1294 J-0.2837 F75.0
N5360 X14.4188 Y2.0579 I0.6502 J-0.3667
N5370 G02 X14.3210 Y2.0010 I-0.0773 J0.0205
N5380 M05
N5390 G04 P1
N5400 G00 Z0.8000
N5410 X15.5256 Y2.1597
N5420 Z0.6800
N5430 o<touchoff> call [0.1800]  [0.5]  [0.1500] 
N5440 F3.937
N5450 G01 Z0.1500
N5460 X15.6202 Y2.2415 F75
N5470 Y2.2414
N5480 G02 X15.9201 Y1.4179 I-0.9159 J-0.7999 F75.0
N5490 G01 Y1.4173 F75
N5500 G02 X15.8508 Y0.9844 I-1.3079 J-0.0128 F75.0
N5510 X15.6205 Y0.5962 I-1.0739 J0.3750
N5520 X14.8857 Y0.2290 I-0.8208 J0.7238
N5530 G01 Y0.4764 F75
N5540 G03 X15.0179 Y0.5843 I-0.1283 J0.2921 F75.0
N5550 X15.0778 Y0.6934 I-0.4113 J0.2969
N5560 X15.1052 Y0.7736 I-0.7027 J0.2854
N5570 X15.1404 Y0.9382 I-1.3414 J0.3722
N5580 X15.1617 Y1.1298 I-2.3512 J0.3592
N5590 X15.1710 Y1.3458 I-3.7487 J0.2687
N5600 G01 X15.1716 Y1.4245 F75
N5610 G03 X15.1615 Y1.7139 I-3.8063 J0.0120 F75.0
N5620 X15.1290 Y1.9629 I-2.1232 J-0.1502
N5630 X15.0695 Y2.1665 I-1.0331 J-0.1915
N5640 X14.9650 Y2.3256 I-0.4242 J-0.1649
N5650 G01 X14.9647 Y2.3259 F75
N5660 G03 X14.8857 Y2.3776 I-0.1843 J-0.1954 F75.0
N5670 G01 Y2.6246 F75
N5680 G02 X15.6152 Y2.2472 I-0.0914 J-1.0705 F75.0
N5690 G01 X15.6202 Y2.2415 F75
N5700 G02 X15.6120 Y2.1286 I-0.0605 J-0.0523 F75.0
N5710 M05
N5720 G04 P1
N5730 G00 Z0.8000
N5740 X17.9380 Y1.9285
N5750 Z0.6800
N5760 o<touchoff> call [0.1800]  [0.5]  [0.1500] 
N5770 F3.937
N5780 G01 Z0.1500
N5790 X17.8130 F75
N5800 Y1.9288
N5810 X17.8114 Y2.0261
N5820 Y2.0269
N5830 X17.8067 Y2.1079
N5840 X17.8066 Y2.1092
N5850 X17.7990 Y2.1711
N5860 Y2.1717
N5870 G03 X17.7871 Y2.2236 I-0.3695 J-0.0571 F75.0
N5880 G01 X17.7866 Y2.2250 F75
N5890 X17.7789 Y2.2449
N5900 X17.7786 Y2.2456
N5910 G03 X17.7394 Y2.3111 I-0.2659 J-0.1147 F75.0
N5920 X17.5847 Y2.3839 I-0.1498 J-0.1175
N5930 X17.4939 Y2.3745 I-0.0025 J-0.4202
N5940 X17.4075 Y2.3418 I0.0616 J-0.2931
N5950 G01 Y2.4864 F75
N5960 G02 X17.5431 Y2.5724 I0.4583 J-0.5718 F75.0
N5970 X17.7701 Y2.6261 I0.2297 J-0.4644
N5980 X17.8953 Y2.6209 I0.0039 J-1.4182
N5990 X18.0100 Y2.6040 I-0.0782 J-0.9270
N6000 X18.0859 Y2.5827 I-0.1292 J-0.6058
N6010 X18.2319 Y2.5065 I-0.1858 J-0.5337
N6020 X18.2906 Y2.4561 I-0.2995 J-0.4088
N6030 X18.4435 Y2.1805 I-0.4185 J-0.4124
N6040 X18.4699 Y1.9754 I-0.8719 J-0.2163
N6050 G01 X18.4701 Y1.9518 F75
N6060 Y0.7355
N6070 G03 X18.4745 Y0.6471 I0.8116 J-0.0039 F75.0
N6080 X18.4889 Y0.5712 I0.4474 J0.0454
N6090 X18.5180 Y0.5060 I0.2231 J0.0606
N6100 X18.5895 Y0.4520 I0.1083 J0.0689
N6110 G01 X18.5903 Y0.4517 F75
N6120 X18.6560 Y0.4353
N6130 X18.6569 Y0.4351
N6140 G02 X18.7062 Y0.4219 I-0.0799 J-0.3983 F75.0
N6150 X18.7473 Y0.4040 I-0.0791 J-0.2373
N6160 X18.7748 Y0.3848 I-0.0717 J-0.1319
N6170 G01 Y0.2628 F75
N6180 X17.7005
N6190 Y0.4076
N6200 G02 X17.7079 Y0.4451 I0.0922 J0.0012 F75.0
N6210 X17.7321 Y0.4767 I0.0804 J-0.0364
N6220 G01 X17.7327 Y0.4772 F75
N6230 X17.7548 Y0.4969
N6240 X17.7556 Y0.4977
N6250 X17.7741 Y0.5164
N6260 X17.7753 Y0.5177
N6270 X17.7910 Y0.5368
N6280 X17.7920 Y0.5380
N6290 G03 X17.8045 Y0.5635 I-0.0786 J0.0545 F75.0
N6300 G01 X17.8049 Y0.5650 F75
N6310 X17.8101 Y0.5874
N6320 G03 X17.8106 Y0.5905 I-0.0190 J0.0044 F75.0
N6330 G01 X17.8130 Y0.6264 F75
N6340 Y0.6277
N6350 Y1.9285
N6360 G02 X17.8930 Y2.0085 I0.0800 J0.0000 F75.0
N6370 M05
N6380 G04 P1
N6390 G00 Z0.8000
N6400 X17.0563 Y0.5418
N6410 Z0.6800
N6420 o<touchoff> call [0.1800]  [0.5]  [0.1500] 
N6430 F3.937
N6440 G01 Z0.1500
N6450 X17.1774 Y0.5727 F75
N6460 G03 X17.2032 Y0.5099 I0.2376 J0.0606 F75.0
N6470 X17.2713 Y0.4523 I0.1106 J0.0618
N6480 G01 X17.2730 Y0.4518 F75
N6490 X17.3363 Y0.4354
N6500 X17.3371 Y0.4352
N6510 G02 X17.3845 Y0.4218 I-0.0781 J-0.3689 F75.0
N6520 X17.4271 Y0.4020 I-0.0783 J-0.2238
N6530 X17.4506 Y0.3849 I-0.0779 J-0.1312
N6540 G01 Y0.2628 F75
N6550 X16.1982
N6560 Y0.3834
N6570 G02 X16.2608 Y0.4144 I0.1351 J-0.1940 F75.0
N6580 G01 X16.2765 Y0.4191 F75
N6590 G03 X16.3598 Y0.4455 I-0.2345 J0.8837 F75.0
N6600 G01 X16.3778 Y0.4524 F75
N6610 G03 X16.4439 Y0.4922 I-0.0769 J0.2027 F75.0
N6620 X16.5009 Y0.6052 I-0.1192 J0.1309
N6630 G01 X16.5010 Y0.6060 F75
N6640 X16.5028 Y0.6358
N6650 X16.5029 Y0.6370
N6660 X16.5028 Y2.0854
N6670 G03 X16.4965 Y2.1747 I-0.5863 J0.0033 F75.0
N6680 X16.4740 Y2.2585 I-0.3641 J-0.0528
N6690 X16.4197 Y2.3407 I-0.2232 J-0.0883
N6700 X16.3706 Y2.3785 I-0.1867 J-0.1919
N6710 X16.3096 Y2.4099 I-0.2553 J-0.4220
N6720 X16.2354 Y2.4378 I-0.3363 J-0.7797
N6730 G01 X16.1982 Y2.4492 F75
N6740 Y2.5793
N6750 X17.1599
N6760 Y0.7355
N6770 G03 X17.1641 Y0.6477 I0.8535 J-0.0038 F75.0
N6780 X17.1774 Y0.5727 I0.4726 J0.0453
N6790 G01 F75
N6800 G02 X17.1197 Y0.4754 I-0.0775 J-0.0198 F75.0
N6810 M05
N6820 G04 P1
N6830 G00 Z0.8000
N6840 X12.8257 Y3.0968
N6850 Z0.6800
N6860 o<touchoff> call [0.1800]  [0.5]  [0.1500] 
N6870 F3.937
N6880 G01 Z0.1500
N6890 X12.9181 Y3.0127 F75
N6900 G02 X12.6608 Y2.8974 I-0.2607 J0.2373 F75.0
N6910 G01 X12.6441 Y2.8972 F75
N6920 G02 X12.5489 Y2.9082 I-0.0021 J0.3985 F75.0
N6930 X12.4906 Y2.9283 I0.0799 J0.3268
N6940 X12.3727 Y3.0128 I0.1449 J0.3267
N6950 X12.2701 Y3.2750 I0.2829 J0.2618
N6960 G01 X12.2700 Y3.2858 F75
N6970 G02 X12.3728 Y3.5583 I0.3983 J0.0055 F75.0
N6980 X12.6259 Y3.6758 I0.2602 J-0.2294
N6990 G01 X12.6446 Y3.6761 F75
N7000 G02 X12.7858 Y3.6511 I0.0044 J-0.3856 F75.0
N7010 X12.9180 Y3.5585 I-0.1281 J-0.3234
N7020 X13.0209 Y3.2858 I-0.2956 J-0.2673
N7030 G01 Y3.2853 F75
N7040 G02 X12.9944 Y3.1343 I-0.4179 J-0.0044 F75.0
N7050 X12.9183 Y3.0128 I-0.3538 J0.1370
N7060 G01 X12.9181 Y3.0127 F75
N7070 G02 X12.8051 Y3.0074 I-0.0592 J0.0538 F75.0
N7080 M05
N7090 G04 P1
N7100 G00 Z0.8000
N7110 X11.7148 Y2.5314
N7120 Z0.6800
N7130 o<touchoff> call [0.1800]  [0.5]  [0.1500] 
N7140 F3.937
N7150 G01 Z0.1500
N7160 X11.8303 Y2.5793 F75
N7170 Y2.3605
N7180 X11.4474
N7190 Y2.5793
N7200 X11.8303
N7210 G02 X11.7503 Y2.4993 I-0.0800 J0.0000 F75.0
N7220 (Operation: Outside Offset, Outside, T1: Plasma, 0.039 inch kerf)
N7230 M05
N7240 G04 P1
N7250 G00 Z0.8000
N7260 X16.6404 Y3.9382
N7270 Z0.6800
N7280 o<touchoff> call [0.1800]  [0.5]  [0.1500] 
N7290 F3.937
N7300 G01 Z0.1500
N7310 Y3.8132 F75
N7320 X0.2000
N7330 G03 X-0.0195 Y3.5937 I0.0000 J-0.2195 F75.0
N7340 G01 Y0.2000 F75
N7350 G03 X0.2000 Y-0.0195 I0.2195 J0.0000 F75.0
N7360 G01 X18.8869 F75
N7370 G03 X19.1064 Y0.2000 I0.0000 J0.2195 F75.0
N7380 G01 Y3.5937 F75
N7390 G03 X18.8869 Y3.8132 I-0.2195 J0.0000 F75.0
N7400 G01 X16.6404 F75
N7410 G02 X16.5604 Y3.8932 I0.0000 J0.0800 F75.0
N7420 M05
N7430 G04 P1
N7440 G00 Z0.8000
N7450 M05 M30
