N0010 (Filename: 1.ngc)
N0020 (Post processor: LinuxCNC plasma - BadApple.scpost)
N0030 (Date: 06/18/2018)
N0040 G20 (Units: Inches)
N0050 G40 G90
N0060 G64 P0.001 
N0070 F1 S1
N0080 (Part: gantry_support)
N0090 (Operation: Inside Offset, 0, T2: Plasma, 0.048 inch kerf)
N0100 G00 Z0.8000
N0110 X2.5482 Y6.7533
N0120 o<touchoff> call [0.1500]  [0.5]  [0.2200] 
N0130 F40
N0140 G01 Z0.2200
N0150 X2.7740 Y6.8607
N0160 X1.2902 Y9.9796
N0170 G03 X1.1686 Y10.0326 I-0.0912 J-0.0434 F40.0
N0180 G01 X0.6720 Y9.8760 F40
N0190 G03 X0.6057 Y9.7504 I0.0304 J-0.0963 F40.0
N0200 G01 X1.5846 Y6.5172 F40
N0210 G03 X1.7076 Y6.4490 I0.0967 J0.0293 F40.0
N0220 G01 X2.7091 Y6.7198 F40
N0230 G03 X2.7740 Y6.8607 I-0.0264 J0.0975 F40.0
N0240 X2.5608 Y6.9364 I-0.1445 J-0.0687
N0250 M05
N0260 G04 P1
N0270 G00 Z0.8000
N0280 X0.4000 Y11.5067
N0290 o<touchoff> call [0.1500]  [0.5]  [0.2200] 
N0300 F40
N0310 G01 Z0.2200
N0320 Y11.3067
N0330 G03 X0.4000 Y11.3067 I0.0000 J0.1310 F40.0
N0340 X0.4693 Y11.4740 I-0.0490 J0.1183
N0350 M05
N0360 G04 P1
N0370 G00 Z0.8000
N0380 X0.4000 Y12.2867
N0390 o<touchoff> call [0.1500]  [0.5]  [0.2200] 
N0400 F40
N0410 G01 Z0.2200
N0420 Y12.0867
N0430 G03 X0.4000 Y12.0867 I0.0000 J0.1310 F40.0
N0440 X0.4693 Y12.2540 I-0.0490 J0.1183
N0450 M05
N0460 G04 P1
N0470 G00 Z0.8000
N0480 X4.8041 Y2.0113
N0490 o<touchoff> call [0.1500]  [0.5]  [0.2200] 
N0500 F40
N0510 G01 Z0.2200
N0520 X5.0299 Y2.1187
N0530 X3.0583 Y6.2630
N0540 G03 X2.9408 Y6.3171 I-0.0912 J-0.0434 F40.0
N0550 G01 X1.8340 Y6.0178 F40
N0560 G03 X1.7641 Y5.8896 I0.0264 J-0.0975 F40.0
N0570 G01 X2.9915 Y2.0446 F40
N0580 G03 X3.0877 Y1.9743 I0.0962 J0.0307 F40.0
N0590 G01 X4.9387 F40
N0600 G03 X5.0299 Y2.1187 I0.0000 J0.1010 F40.0
N0610 X4.8167 Y2.1944 I-0.1445 J-0.0687
N0620 M05
N0630 G04 P1
N0640 G00 Z0.8000
N0650 X5.3154 Y0.6887
N0660 o<touchoff> call [0.1500]  [0.5]  [0.2200] 
N0670 F40
N0680 G01 Z0.2200
N0690 Y0.5287
N0700 G03 X5.3154 Y0.5287 I0.0000 J0.1135 F40.0
N0710 X5.3708 Y0.6625 I-0.0392 J0.0946
N0720 M05
N0730 G04 P1
N0740 G00 Z0.8000
N0750 X4.0654 Y0.6412
N0760 o<touchoff> call [0.1500]  [0.5]  [0.2200] 
N0770 F40
N0780 G01 Z0.2200
N0790 Y0.3912
N0800 G03 X4.0654 Y0.3912 I0.0000 J0.2510 F40.0
N0810 X4.2254 Y0.5512 I0.0000 J0.1600
N0820 M05
N0830 G04 P1
N0840 G00 Z0.8000
N0850 X2.8154 Y0.6887
N0860 o<touchoff> call [0.1500]  [0.5]  [0.2200] 
N0870 F40
N0880 G01 Z0.2200
N0890 Y0.5287
N0900 G03 X2.8154 Y0.5287 I0.0000 J0.1135 F40.0
N0910 X2.8708 Y0.6625 I-0.0392 J0.0946
N0920 (Operation: Outside Offset, Outsie, T2: Plasma, 0.048 inch kerf)
N0930 M05
N0940 G04 P1
N0950 G00 Z0.8000
N0960 X1.8750 Y12.9617
N0970 o<touchoff> call [0.1500]  [0.5]  [0.2200] 
N0980 F40
N0990 G01 Z0.2200
N1000 Y12.7117
N1010 G02 X2.0240 Y12.5627 I0.0000 J-0.1490 F40.0
N1020 G01 Y10.9135 F40
N1030 G03 X2.1187 Y10.4942 I0.9760 J0.0000 F40.0
N1040 G01 X5.9901 Y2.3564 F40
N1050 G02 X6.0894 Y1.9165 I-0.9247 J-0.4399 F40.0
N1060 G01 Y1.0000 F40
N1070 G02 X5.0654 Y-0.0240 I-1.0240 J0.0000 F40.0
N1080 G01 X3.0654 F40
N1090 G02 X2.0414 Y1.0000 I0.0000 J1.0240 F40.0
N1100 G01 Y2.0044 F40
N1110 G03 X2.0050 Y2.2683 I-0.9760 J0.0000 F40.0
N1120 G01 X0.0141 Y9.3566 F40
N1130 G02 X-0.0240 Y9.6335 I0.9859 J0.2769 F40.0
N1140 G01 Y12.5627 F40
N1150 G02 X0.1250 Y12.7117 I0.1490 J0.0000 F40.0
N1160 G01 X1.8750 F40
N1170 (Part: gantry_support Duplicate 1)
N1180 G03 X2.0350 Y12.8717 I0.0000 J0.1600 F40.0
N1190 (Operation: Inside Offset, 0, T2: Plasma, 0.048 inch kerf)
N1200 M05
N1210 G04 P1
N1220 G00 Z0.8000
N1230 X5.8794 Y6.1313
N1240 o<touchoff> call [0.1500]  [0.5]  [0.2200] 
N1250 F40
N1260 G01 Z0.2200
N1270 X5.6536 Y6.0239
N1280 X7.1374 Y2.9050
N1290 G03 X7.2590 Y2.8520 I0.0912 J0.0434 F40.0
N1300 G01 X7.7555 Y3.0086 F40
N1310 G03 X7.8218 Y3.1342 I-0.0304 J0.0963 F40.0
N1320 G01 X6.8430 Y6.3674 F40
N1330 G03 X6.7200 Y6.4356 I-0.0967 J-0.0293 F40.0
N1340 G01 X5.7184 Y6.1648 F40
N1350 G03 X5.6536 Y6.0239 I0.0264 J-0.0975 F40.0
N1360 X5.8668 Y5.9482 I0.1445 J0.0687
N1370 M05
N1380 G04 P1
N1390 G00 Z0.8000
N1400 X8.0276 Y1.3779
N1410 o<touchoff> call [0.1500]  [0.5]  [0.2200] 
N1420 F40
N1430 G01 Z0.2200
N1440 Y1.5779
N1450 G03 X8.0276 Y1.5779 I0.0000 J-0.1310 F40.0
N1460 X7.9583 Y1.4106 I0.0490 J-0.1183
N1470 M05
N1480 G04 P1
N1490 G00 Z0.8000
N1500 X8.0276 Y0.5979
N1510 o<touchoff> call [0.1500]  [0.5]  [0.2200] 
N1520 F40
N1530 G01 Z0.2200
N1540 Y0.7979
N1550 G03 X8.0276 Y0.7979 I0.0000 J-0.1310 F40.0
N1560 X7.9583 Y0.6306 I0.0490 J-0.1183
N1570 M05
N1580 G04 P1
N1590 G00 Z0.8000
N1600 X3.6235 Y10.8733
N1610 o<touchoff> call [0.1500]  [0.5]  [0.2200] 
N1620 F40
N1630 G01 Z0.2200
N1640 X3.3977 Y10.7659
N1650 X5.3693 Y6.6217
N1660 G03 X5.4868 Y6.5675 I0.0912 J0.0434 F40.0
N1670 G01 X6.5936 Y6.8668 F40
N1680 G03 X6.6635 Y6.9950 I-0.0264 J0.0975 F40.0
N1690 G01 X5.4361 Y10.8400 F40
N1700 G03 X5.3399 Y10.9103 I-0.0962 J-0.0307 F40.0
N1710 G01 X3.4889 F40
N1720 G03 X3.3977 Y10.7659 I0.0000 J-0.1010 F40.0
N1730 X3.6109 Y10.6902 I0.1445 J0.0687
N1740 M05
N1750 G04 P1
N1760 G00 Z0.8000
N1770 X3.1122 Y12.1959
N1780 o<touchoff> call [0.1500]  [0.5]  [0.2200] 
N1790 F40
N1800 G01 Z0.2200
N1810 Y12.3559
N1820 G03 X3.1122 Y12.3559 I0.0000 J-0.1135 F40.0
N1830 X3.0568 Y12.2221 I0.0392 J-0.0946
N1840 M05
N1850 G04 P1
N1860 G00 Z0.8000
N1870 X4.3622 Y12.2434
N1880 o<touchoff> call [0.1500]  [0.5]  [0.2200] 
N1890 F40
N1900 G01 Z0.2200
N1910 Y12.4934
N1920 G03 X4.3622 Y12.4934 I0.0000 J-0.2510 F40.0
N1930 X4.2022 Y12.3334 I0.0000 J-0.1600
N1940 M05
N1950 G04 P1
N1960 G00 Z0.8000
N1970 X5.6122 Y12.1959
N1980 o<touchoff> call [0.1500]  [0.5]  [0.2200] 
N1990 F40
N2000 G01 Z0.2200
N2010 Y12.3559
N2020 G03 X5.6122 Y12.3559 I0.0000 J-0.1135 F40.0
N2030 X5.5568 Y12.2221 I0.0392 J-0.0946
N2040 (Operation: Outside Offset, Outsie, T2: Plasma, 0.048 inch kerf)
N2050 M05
N2060 G04 P1
N2070 G00 Z0.8000
N2080 X6.5526 Y-0.0771
N2090 o<touchoff> call [0.1500]  [0.5]  [0.2200] 
N2100 F40
N2110 G01 Z0.2200
N2120 Y0.1729
N2130 G02 X6.4036 Y0.3219 I-0.0000 J0.1490 F40.0
N2140 G01 Y1.9711 F40
N2150 G03 X6.3089 Y2.3904 I-0.9760 J-0.0000 F40.0
N2160 G01 X2.4375 Y10.5282 F40
N2170 G02 X2.3382 Y10.9681 I0.9247 J0.4399 F40.0
N2180 G01 Y11.8846 F40
N2190 G02 X3.3622 Y12.9086 I1.0240 J0.0000 F40.0
N2200 G01 X5.3622 F40
N2210 G02 X6.3862 Y11.8846 I0.0000 J-1.0240 F40.0
N2220 G01 Y10.8802 F40
N2230 G03 X6.4226 Y10.6163 I0.9760 J0.0000 F40.0
N2240 G01 X8.4134 Y3.5280 F40
N2250 G02 X8.4516 Y3.2511 I-0.9859 J-0.2769 F40.0
N2260 G01 Y0.3219 F40
N2270 G02 X8.3026 Y0.1729 I-0.1490 J-0.0000 F40.0
N2280 G01 X6.5526 F40
N2290 G03 X6.3926 Y0.0129 I0.0000 J-0.1600 F40.0
N2300 M05
N2310 G04 P1
N2320 G00 Z0.8000
N2330 M05 M30
