N0010 (Filename: 0.ngc)
N0020 (Post processor: LinuxCNC plasma - BadApple.scpost)
N0030 (Date: 13/09/18)
N0040 G20 (Units: Inches)
N0050 G40 G90
N0060 G64 P0.001 
N0070 F1 S1
N0080 (Part: Whitehouse)
N0090 (Operation: Inside Offset, inside, T1: Plasma, 0.039 inch kerf)
N0100 G00 Z0.8000
N0110 X24.5401 Y2.3488
N0120 Z0.6800
N0130 o<touchoff> call [0.1800]  [0.5]  [0.1500] 
N0140 F3.937
N0150 G01 Z0.1500
N0160 X24.6649 Y2.3545 F75
N0170 G03 X24.6666 Y2.3361 I0.2134 J0.0098 F75.0
N0180 G01 X24.6667 Y2.3352 F75
N0190 G03 X24.7546 Y2.1709 I0.2991 J0.0542 F75.0
N0200 X25.0643 Y2.0142 I0.3935 J0.3936
N0210 G02 X24.8791 Y1.5263 I-6.2667 J2.0992
N0220 X24.6386 Y1.0985 I-2.2597 J0.9888
N0230 X24.4269 Y0.8809 I-0.7831 J0.5502
N0240 X24.1668 Y0.7911 I-0.2703 J0.3614
N0250 X24.0254 Y0.8539 I-0.0064 J0.1762
N0260 X23.9748 Y0.9861 I0.2558 J0.1737
N0270 X23.9813 Y1.2945 I1.1329 J0.1305
N0280 X24.1476 Y1.8287 I1.8788 J-0.2922
N0290 X24.4997 Y2.3888 I2.5097 J-1.1869
N0300 X24.7361 Y2.6099 I0.8776 J-0.7010
N0310 X24.8911 Y2.6749 I0.2372 J-0.3486
N0320 G01 X24.8326 Y2.6267 F75
N0330 G03 X24.8307 Y2.6250 I0.0124 J-0.0151 F75.0
N0340 G01 X24.7344 Y2.5222 F75
N0350 G03 X24.6649 Y2.3545 I0.1440 J-0.1579 F75.0
N0360 G02 X24.5887 Y2.2709 I-0.0799 J-0.0037
N0370 M05
N0380 G04 P1
N0390 G00 Z0.8000
N0400 X25.0036 Y2.4321
N0410 Z0.6800
N0420 o<touchoff> call [0.1800]  [0.5]  [0.1500] 
N0430 F3.937
N0440 G01 Z0.1500
N0450 X25.1285 Y2.4360 F75
N0460 G02 X25.1226 Y2.3270 I-0.6420 J-0.0200 F75.0
N0470 G01 X25.1125 Y2.2482 F75
N0480 G02 X24.9679 Y2.3130 I0.1217 J0.4652 F75.0
N0490 X24.9033 Y2.4415 I0.0933 J0.1275
N0500 G01 X24.9038 Y2.4492 F75
N0510 X24.9049 Y2.4551
N0520 X24.9060 Y2.4583
N0530 X24.9066 Y2.4593
N0540 X24.9072 Y2.4597
N0550 X24.9079 Y2.4602
N0560 G02 X25.0580 Y2.5241 I0.2199 J-0.3084 F75.0
N0570 X25.1134 Y2.5324 I0.1387 J-0.7377
N0580 G01 X25.1184 Y2.5072 F75
N0590 X25.1285 Y2.4360
N0600 G02 X25.0510 Y2.3535 I-0.0800 J-0.0025 F75.0
N0610 M05
N0620 G04 P1
N0630 G00 Z0.8000
N0640 X31.2159 Y2.5754
N0650 Z0.6800
N0660 o<touchoff> call [0.1800]  [0.5]  [0.1500] 
N0670 F3.937
N0680 G01 Z0.1500
N0690 X31.3308 Y2.5262 F75
N0700 G02 X31.2213 Y2.3324 I-0.9331 J0.3992 F75.0
N0710 G01 X31.1897 Y2.2891 F75
N0720 G02 X30.4668 Y1.7178 I-5.1609 J5.7877 F75.0
N0730 G01 X30.4289 Y1.6923 F75
N0740 G02 X30.5467 Y1.9432 I1.6013 J-0.5986 F75.0
N0750 X30.7348 Y2.2407 I3.4813 J-1.9935
N0760 G01 X30.7425 Y2.2519 F75
N0770 X30.7428 Y2.2522
N0780 G02 X30.9925 Y2.5697 I2.0784 J-1.3779 F75.0
N0790 X31.1311 Y2.6792 I0.4582 J-0.4376
N0800 X31.2083 Y2.7018 I0.0875 J-0.1553
N0810 X31.2422 Y2.6922 I-0.0003 J-0.0652
N0820 G01 X31.2509 Y2.6863 F75
N0830 G03 X31.2914 Y2.6653 I0.0770 J0.0992 F75.0
N0840 X31.2945 Y2.6646 I0.0057 J0.0187
N0850 X31.3345 Y2.5902 I0.8637 J0.4161
N0860 X31.3361 Y2.5880 I0.0168 J0.0100
N0870 G01 X31.3417 Y2.5808 F75
N0880 G03 X31.3443 Y2.5782 I0.0152 J0.0122 F75.0
N0890 G02 X31.3308 Y2.5262 I-0.2645 J0.0409
N0900 G01 F75
N0910 G02 X31.2258 Y2.4841 I-0.0736 J0.0315 F75.0
N0920 M05
N0930 G04 P1
N0940 G00 Z0.8000
N0950 M05 M30
