N0010 (Filename: 1.ngc)
N0020 (Post processor: LinuxCNC plasma - BadApple.scpost)
N0030 (Date: 17/09/18)
N0040 G20 (Units: Inches)
N0050 G40 G90
N0060 G64 P0.001 
N0070 F1 S1
N0080 (Part: Chevy)
N0090 (Operation: Inside Offset, 0, T1: Plasma, 0.039 inch kerf)
N0100 G00 Z0.8000
N0110 X7.7980 Y2.6523
N0120 Z0.6800
N0130 o<touchoff> call [0.1800]  [0.5]  [0.1500] 
N0140 F3.937
N0150 G01 Z0.1500
N0160 X7.7400 Y2.7630 F75
N0170 G03 X7.8089 Y2.8576 I-0.0612 J0.1169 F75.0
N0180 G01 X7.8091 Y2.8593 F75
N0190 X7.8126 Y2.9006
N0200 Y2.9022
N0210 Y3.0568
N0220 G03 X7.8010 Y3.1288 I-0.1889 J0.0064 F75.0
N0230 G01 X7.8005 Y3.1301 F75
N0240 G03 X7.7242 Y3.1960 I-0.1094 J-0.0497 F75.0
N0250 G01 X7.7237 Y3.1961 F75
N0260 G03 X7.6503 Y3.2060 I-0.0768 J-0.2923 F75.0
N0270 G01 X7.6089 F75
N0280 Y3.4271
N0290 G02 X7.8319 Y3.4074 I0.0136 J-1.1136 F75.0
N0300 X8.0005 Y3.3207 I-0.0661 J-0.3361
N0310 X8.0741 Y3.1661 I-0.2212 J-0.1999
N0320 X8.0811 Y3.0805 I-0.5449 J-0.0880
N0330 X8.0798 Y2.8422 I-7.7358 J-0.0781
N0340 X8.0245 Y2.6783 I-0.2923 J0.0074
N0350 X7.9298 Y2.6006 I-0.2703 J0.2327
N0360 G01 X7.9151 Y2.5923 F75
N0370 G03 X7.9086 Y2.5643 I0.0096 J-0.0170 F75.0
N0380 G01 X8.1938 Y2.1454 F75
N0390 X7.8816
N0400 X7.6271 Y2.5234
N0410 G03 X7.6109 Y2.5320 I-0.0162 J-0.0109 F75.0
N0420 G01 X7.3297 F75
N0430 G03 X7.3102 Y2.5125 I0.0000 J-0.0195 F75.0
N0440 G01 Y2.1460 F75
N0450 X7.0345 Y2.1458
N0460 Y3.4267
N0470 X7.4666
N0480 Y3.2061
N0490 X7.3425
N0500 G03 X7.3124 Y3.1897 I-0.0106 J-0.0164 F75.0
N0510 G01 Y2.7625 F75
N0520 G03 X7.3319 Y2.7430 I0.0195 J0.0000 F75.0
N0530 G01 X7.6530 Y2.7436 F75
N0540 G03 X7.7388 Y2.7624 I-0.0042 J0.2243 F75.0
N0550 G02 X7.8442 Y2.7213 I0.0321 J-0.0733
N0560 M05
N0570 G04 P1
N0580 G00 Z0.8000
N0590 X8.6959 Y3.2373
N0600 Z0.6800
N0610 o<touchoff> call [0.1800]  [0.5]  [0.1500] 
N0620 F3.937
N0630 G01 Z0.1500
N0640 X8.6210 Y3.3373 F75
N0650 G02 X8.8352 Y3.4326 I0.3156 J-0.4212 F75.0
N0660 X8.9765 Y3.4507 I0.1893 J-0.9171
N0670 G01 Y3.2171 F75
N0680 G03 X8.8542 Y3.1823 I0.0270 J-0.3270 F75.0
N0690 G01 X8.8530 Y3.1816 F75
N0700 G03 X8.7717 Y3.0594 I0.0889 J-0.1473 F75.0
N0710 G01 X8.7716 Y3.0580 F75
N0720 X8.7687 Y3.0186
N0730 X8.7686 Y3.0172
N0740 Y2.5555
N0750 G03 X8.8210 Y2.4143 I0.1906 J-0.0096 F75.0
N0760 X8.8227 Y2.4127 I0.0141 J0.0134
N0770 X8.9285 Y2.3629 I0.1511 J0.1837
N0780 X9.1668 Y2.3664 I0.1115 J0.5249
N0790 X9.2897 Y2.4536 I-0.0388 J0.1849
N0800 G01 X9.2906 Y2.4553 F75
N0810 G03 X9.3118 Y2.5446 I-0.1967 J0.0939 F75.0
N0820 X9.3107 Y3.0449 I-14.2285 J0.2172
N0830 G01 X9.3106 Y3.0463 F75
N0840 G03 X9.2051 Y3.1928 I-0.1768 J-0.0161 F75.0
N0850 G01 X9.2043 Y3.1932 F75
N0860 G03 X9.1042 Y3.2166 I-0.1343 J-0.3481 F75.0
N0870 G01 Y3.4511 F75
N0880 G02 X9.3567 Y3.3984 I-0.0289 J-0.7701 F75.0
N0890 X9.5548 Y3.2177 I-0.1357 J-0.3477
N0900 X9.5892 Y3.0568 I-0.3590 J-0.1610
N0910 G01 Y3.0528 F75
N0920 Y2.5194
N0930 X9.5893 Y2.5190
N0940 G02 X9.4837 Y2.2553 I-0.3626 J-0.0078 F75.0
N0950 X9.2879 Y2.1496 I-0.3158 J0.3507
N0960 X9.0466 Y2.1195 I-0.2368 J0.9153
N0970 G01 X9.0417 Y2.1198 F75
N0980 X9.0408
N0990 X9.0204 Y2.1200
N1000 G02 X8.7388 Y2.1679 I-0.0060 J0.8149 F75.0
N1010 X8.5365 Y2.3347 I0.1284 J0.3619
N1020 X8.4921 Y2.5113 I0.3409 J0.1797
N1030 G01 X8.4920 Y2.5198 F75
N1040 X8.4922 Y3.0650
N1050 G02 X8.6210 Y3.3373 I0.3586 J-0.0030 F75.0
N1060 X8.7330 Y3.3213 I0.0480 J-0.0640
N1070 M05
N1080 G04 P1
N1090 G00 Z0.8000
N1100 X10.8102 Y2.2606
N1110 Z0.6800
N1120 o<touchoff> call [0.1800]  [0.5]  [0.1500] 
N1130 F3.937
N1140 G01 Z0.1500
N1150 X10.8580 Y2.1451 F75
N1160 X9.9976
N1170 Y3.4267
N1180 X10.2746
N1190 Y2.3972
N1200 G03 X10.2941 Y2.3777 I0.0195 J0.0000 F75.0
N1210 G01 X10.8580 F75
N1220 Y2.1451
N1230 G02 X10.7780 Y2.2251 I0.0000 J0.0800 F75.0
N1240 M05
N1250 G04 P1
N1260 G00 Z0.8000
N1270 X12.0333 Y2.2606
N1280 Z0.6800
N1290 o<touchoff> call [0.1800]  [0.5]  [0.1500] 
N1300 F3.937
N1310 G01 Z0.1500
N1320 X12.0811 Y2.1451 F75
N1330 X11.1901
N1340 Y3.4267
N1350 X12.0811
N1360 Y3.2067
N1370 X11.4866
N1380 G03 X11.4671 Y3.1872 I0.0000 J-0.0195 F75.0
N1390 G01 Y2.9306 F75
N1400 G03 X11.4866 Y2.9111 I0.0195 J0.0000 F75.0
N1410 G01 X12.0352 F75
N1420 Y2.6882
N1430 X11.4866
N1440 G03 X11.4671 Y2.6687 I0.0000 J-0.0195 F75.0
N1450 G01 Y2.3844 F75
N1460 G03 X11.4866 Y2.3649 I0.0195 J0.0000 F75.0
N1470 G01 X12.0811 F75
N1480 Y2.1451
N1490 G02 X12.0011 Y2.2251 I0.0000 J0.0800 F75.0
N1500 M05
N1510 G04 P1
N1520 G00 Z0.8000
N1530 X12.9833 Y2.2609
N1540 Z0.6800
N1550 o<touchoff> call [0.1800]  [0.5]  [0.1500] 
N1560 F3.937
N1570 G01 Z0.1500
N1580 X13.0311 Y2.1454 F75
N1590 X12.7545
N1600 Y3.1747
N1610 G03 X12.7350 Y3.1942 I-0.0195 J0.0000 F75.0
N1620 G01 X12.3482 F75
N1630 Y3.4271
N1640 X13.4342
N1650 Y3.1942
N1660 X13.0506
N1670 G03 X13.0311 Y3.1747 I0.0000 J-0.0195 F75.0
N1680 G01 Y2.1454 F75
N1690 G02 X12.9511 Y2.2254 I0.0000 J0.0800 F75.0
N1700 M05
N1710 G04 P1
N1720 G00 Z0.8000
N1730 X6.0501 Y2.1837
N1740 Z0.6800
N1750 o<touchoff> call [0.1800]  [0.5]  [0.1500] 
N1760 F3.937
N1770 G01 Z0.1500
N1780 X5.9312 Y2.1451 F75
N1790 X5.5150 Y3.4267
N1800 X5.7864
N1810 X6.1158 Y2.3888
N1820 G03 X6.1530 Y2.3888 I0.0186 J0.0059 F75.0
N1830 G01 X6.4830 Y3.4267 F75
N1840 X6.7529
N1850 X6.3374 Y2.1451
N1860 X5.9312
N1870 G02 X5.9826 Y2.2459 I0.0761 J0.0247 F75.0
N1880 M05
N1890 G04 P1
N1900 G00 Z0.8000
N1910 X4.5078 Y2.1930
N1920 Z0.6800
N1930 o<touchoff> call [0.1800]  [0.5]  [0.1500] 
N1940 F3.937
N1950 G01 Z0.1500
N1960 X4.3923 Y2.1451 F75
N1970 Y3.4267
N1980 X5.2833
N1990 Y3.2067
N2000 X4.6875
N2010 G03 X4.6680 Y3.1872 I0.0000 J-0.0195 F75.0
N2020 G01 Y2.9306 F75
N2030 G03 X4.6875 Y2.9111 I0.0195 J0.0000 F75.0
N2040 G01 X5.2367 F75
N2050 Y2.6882
N2060 X4.6875
N2070 G03 X4.6680 Y2.6687 I0.0000 J-0.0195 F75.0
N2080 G01 Y2.3844 F75
N2090 G03 X4.6875 Y2.3649 I0.0195 J0.0000 F75.0
N2100 G01 X5.2821 F75
N2110 Y2.1451
N2120 X4.3923
N2130 G02 X4.4723 Y2.2251 I0.0800 J0.0000 F75.0
N2140 M05
N2150 G04 P1
N2160 G00 Z0.8000
N2170 X3.0539 Y2.2609
N2180 Z0.6800
N2190 o<touchoff> call [0.1800]  [0.5]  [0.1500] 
N2200 F3.937
N2210 G01 Z0.1500
N2220 X3.1017 Y2.1454 F75
N2230 X2.8251
N2240 Y3.4267
N2250 X3.1021
N2260 Y2.9306
N2270 G03 X3.1216 Y2.9111 I0.0195 J0.0000 F75.0
N2280 G01 X3.6491 F75
N2290 G03 X3.6686 Y2.9306 I0.0000 J0.0195 F75.0
N2300 G01 Y3.4267 F75
N2310 X3.9455
N2320 Y2.1451
N2330 X3.6683
N2340 Y2.6591
N2350 G03 X3.6488 Y2.6786 I-0.0195 J0.0000 F75.0
N2360 G01 X3.1212 F75
N2370 G03 X3.1017 Y2.6591 I0.0000 J-0.0195 F75.0
N2380 G01 Y2.1454 F75
N2390 G02 X3.0217 Y2.2254 I0.0000 J0.0800 F75.0
N2400 M05
N2410 G04 P1
N2420 G00 Z0.8000
N2430 X2.3158 Y3.4007
N2440 Z0.6800
N2450 o<touchoff> call [0.1800]  [0.5]  [0.1500] 
N2460 F3.937
N2470 G01 Z0.1500
N2480 X2.4401 Y3.4131 F75
N2490 X2.4182 Y3.1873
N2500 G03 X2.0538 Y3.2173 I-0.3743 J-2.3208 F75.0
N2510 X1.9175 Y3.1990 I-0.0149 J-0.4061
N2520 G01 X1.9165 Y3.1987 F75
N2530 G03 X1.8190 Y3.0873 I0.0548 J-0.1464 F75.0
N2540 X1.8122 Y3.0274 I0.3123 J-0.0659
N2550 G01 X1.8127 Y2.5332 F75
N2560 G03 X1.8424 Y2.4296 I0.2021 J0.0019 F75.0
N2570 X1.8436 Y2.4278 I0.0166 J0.0102
N2580 X1.9338 Y2.3686 I0.1320 J0.1026
N2590 X2.0449 Y2.3555 I0.1109 J0.4656
N2600 G01 X2.0532 F75
N2610 G03 X2.4179 Y2.3855 I-0.0093 J2.3473 F75.0
N2620 G01 X2.4398 Y2.1597 F75
N2630 G02 X2.0431 Y2.1198 I-0.4026 J2.0141 F75.0
N2640 X1.7837 Y2.1534 I-0.0200 J0.8638
N2650 X1.5998 Y2.2780 I0.0957 J0.3392
N2660 X1.5372 Y2.4654 I0.3260 J0.2129
N2670 G01 X1.5351 Y2.5176 F75
N2680 X1.5354 Y3.0553
N2690 Y3.0559
N2700 G02 X1.5819 Y3.2655 I0.4329 J0.0138 F75.0
N2710 X1.7416 Y3.4032 I0.2834 J-0.1672
N2720 X1.9733 Y3.4505 I0.2624 J-0.6933
N2730 G01 X2.0437 Y3.4524 F75
N2740 G02 X2.4401 Y3.4131 I-0.0064 J-2.0861 F75.0
N2750 X2.3528 Y3.3412 I-0.0796 J0.0077
N2760 (Operation: Outside Offset, Outside, T1: Plasma, 0.039 inch kerf)
N2770 M05
N2780 G04 P1
N2790 G00 Z0.8000
N2800 X4.7749 Y5.5259
N2810 Z0.6800
N2820 o<touchoff> call [0.1800]  [0.5]  [0.1500] 
N2830 F3.937
N2840 G01 Z0.1500
N2850 X4.8999 F75
N2860 Y4.1995
N2870 X1.2966 Y4.1998
N2880 G03 X1.2787 Y4.1882 I-0.0000 J-0.0195 F75.0
N2890 G01 X-0.0178 Y1.2704 F75
N2900 G03 X0.0000 Y1.2430 I0.0178 J-0.0079 F75.0
N2910 G01 X4.8999 F75
N2920 Y0.0000
N2930 G03 X4.9194 Y-0.0195 I0.0195 J0.0000 F75.0
N2940 G01 X9.9106 F75
N2950 G03 X9.9301 Y0.0000 I0.0000 J0.0195 F75.0
N2960 G01 Y1.2430 F75
N2970 X13.4925
N2980 G03 X13.5103 Y1.2546 I0.0000 J0.0195 F75.0
N2990 G01 X14.8066 Y4.1743 F75
N3000 G03 X14.7887 Y4.2017 I-0.0178 J0.0079 F75.0
N3010 G01 X9.9301 F75
N3020 Y5.5259
N3030 G03 X9.9106 Y5.5454 I-0.0195 J0.0000 F75.0
N3040 G01 X4.9194 F75
N3050 G02 X4.8394 Y5.6254 I0.0000 J0.0800 F75.0
N3060 M05
N3070 G04 P1
N3080 G00 Z0.8000
N3090 M05 M30
