%
(1001)
(T16  D=0.25 CR=0. - ZMIN=-0.2 - FLAT END MILL)
N10 G90 G94 G17 G91.1
N15 G20
N20 G53 G0 Z0.
(ROUGH PORT)
N25 M9
N35 S3250 M3
N40 G54
N45 M8
N55 G0 X5.6783 Y0.0226
N60 G43 Z0.6
N65 G0 Z0.2
N70 Z0.1254
N75 G1 Z0.1004 F30.
N80 G3 X5.7178 Y-0.0226 Z0.0971 I0.0197 J-0.0226 F20.
N85 X5.6783 Y0.0226 Z0.0938 I-0.0197 J0.0226
N90 X5.7178 Y-0.0226 Z0.0905 I0.0197 J-0.0226
N95 X5.6783 Y0.0226 Z0.0872 I-0.0197 J0.0226
N100 X5.7178 Y-0.0226 Z0.0839 I0.0197 J-0.0226
N105 X5.6783 Y0.0226 Z0.0806 I-0.0197 J0.0226
N110 X5.7178 Y-0.0226 Z0.0774 I0.0197 J-0.0226
N115 X5.6783 Y0.0226 Z0.0741 I-0.0197 J0.0226
N120 X5.7178 Y-0.0226 Z0.0708 I0.0197 J-0.0226
N125 X5.6783 Y0.0226 Z0.0675 I-0.0197 J0.0226
N130 X5.7178 Y-0.0226 Z0.0642 I0.0197 J-0.0226
N135 X5.6783 Y0.0226 Z0.0609 I-0.0197 J0.0226
N140 X5.7178 Y-0.0226 Z0.0576 I0.0197 J-0.0226
N145 X5.6783 Y0.0226 Z0.0543 I-0.0197 J0.0226
N150 X5.7178 Y-0.0226 Z0.051 I0.0197 J-0.0226
N155 X5.6783 Y0.0226 Z0.0477 I-0.0197 J0.0226
N160 X5.7178 Y-0.0226 Z0.0444 I0.0197 J-0.0226
N165 X5.6783 Y0.0226 Z0.0412 I-0.0197 J0.0226
N170 X5.7178 Y-0.0226 Z0.0379 I0.0197 J-0.0226
N175 X5.6783 Y0.0226 Z0.0346 I-0.0197 J0.0226
N180 X5.7178 Y-0.0226 Z0.0313 I0.0197 J-0.0226
N185 X5.6783 Y0.0226 Z0.028 I-0.0197 J0.0226
N190 X5.7178 Y-0.0226 Z0.0247 I0.0197 J-0.0226
N195 X5.6783 Y0.0226 Z0.0214 I-0.0197 J0.0226
N200 X5.7178 Y-0.0226 Z0.0181 I0.0197 J-0.0226
N205 X5.6783 Y0.0226 Z0.0148 I-0.0197 J0.0226
N210 X5.7178 Y-0.0226 Z0.0115 I0.0197 J-0.0226
N215 X5.6783 Y0.0226 Z0.0082 I-0.0197 J0.0226
N220 X5.7178 Y-0.0226 Z0.0049 I0.0197 J-0.0226
N225 X5.6783 Y0.0226 Z0.0017 I-0.0197 J0.0226
N230 X5.7178 Y-0.0226 Z-0.0016 I0.0197 J-0.0226
N235 X5.6783 Y0.0226 Z-0.0049 I-0.0197 J0.0226
N240 X5.7178 Y-0.0226 Z-0.0082 I0.0197 J-0.0226
N245 X5.6783 Y0.0226 Z-0.0115 I-0.0197 J0.0226
N250 X5.7178 Y-0.0226 Z-0.0148 I0.0197 J-0.0226
N255 X5.6783 Y0.0226 Z-0.0181 I-0.0197 J0.0226
N260 X5.7178 Y-0.0226 Z-0.0214 I0.0197 J-0.0226
N265 X5.6783 Y0.0226 Z-0.0247 I-0.0197 J0.0226
N270 X5.7178 Y-0.0226 Z-0.028 I0.0197 J-0.0226
N275 X5.6783 Y0.0226 Z-0.0313 I-0.0197 J0.0226
N280 X5.7178 Y-0.0226 Z-0.0345 I0.0197 J-0.0226
N285 X5.6783 Y0.0226 Z-0.0378 I-0.0197 J0.0226
N290 X5.7178 Y-0.0226 Z-0.0411 I0.0197 J-0.0226
N295 X5.6783 Y0.0226 Z-0.0444 I-0.0197 J0.0226
N300 X5.7178 Y-0.0226 Z-0.0477 I0.0197 J-0.0226
N305 X5.6783 Y0.0226 Z-0.051 I-0.0197 J0.0226
N310 X5.7178 Y-0.0226 Z-0.0543 I0.0197 J-0.0226
N315 X5.6783 Y0.0226 Z-0.0576 I-0.0197 J0.0226
N320 X5.7178 Y-0.0226 Z-0.0609 I0.0197 J-0.0226
N325 X5.6783 Y0.0226 Z-0.0642 I-0.0197 J0.0226
N330 X5.7178 Y-0.0226 Z-0.0675 I0.0197 J-0.0226
N335 X5.6783 Y0.0226 Z-0.0707 I-0.0197 J0.0226
N340 X5.7178 Y-0.0226 Z-0.074 I0.0197 J-0.0226
N345 X5.6783 Y0.0226 Z-0.0773 I-0.0197 J0.0226
N350 X5.7178 Y-0.0226 Z-0.0806 I0.0197 J-0.0226
N355 X5.6783 Y0.0226 Z-0.0839 I-0.0197 J0.0226
N360 X5.7178 Y-0.0226 Z-0.0872 I0.0197 J-0.0226
N365 X5.6783 Y0.0226 Z-0.0905 I-0.0197 J0.0226
N370 X5.7178 Y-0.0226 Z-0.0938 I0.0197 J-0.0226
N375 X5.6783 Y0.0226 Z-0.0971 I-0.0197 J0.0226
N380 X5.7178 Y-0.0226 Z-0.1004 I0.0197 J-0.0226
N385 X5.6783 Y0.0226 Z-0.1037 I-0.0197 J0.0226
N390 X5.7178 Y-0.0226 Z-0.107 I0.0197 J-0.0226
N395 X5.6783 Y0.0226 Z-0.1102 I-0.0197 J0.0226
N400 X5.7178 Y-0.0226 Z-0.1135 I0.0197 J-0.0226
N405 X5.6783 Y0.0226 Z-0.1168 I-0.0197 J0.0226
N410 X5.7178 Y-0.0226 Z-0.1201 I0.0197 J-0.0226
N415 X5.6783 Y0.0226 Z-0.1234 I-0.0197 J0.0226
N420 X5.7178 Y-0.0226 Z-0.1267 I0.0197 J-0.0226
N425 X5.6783 Y0.0226 Z-0.13 I-0.0197 J0.0226
N430 X5.7178 Y-0.0226 Z-0.1333 I0.0197 J-0.0226
N435 X5.6783 Y0.0226 Z-0.1366 I-0.0197 J0.0226
N440 X5.7178 Y-0.0226 Z-0.1399 I0.0197 J-0.0226
N445 X5.6783 Y0.0226 Z-0.1432 I-0.0197 J0.0226
N450 X5.7178 Y-0.0226 Z-0.1464 I0.0197 J-0.0226
N455 X5.6783 Y0.0226 Z-0.1497 I-0.0197 J0.0226
N460 X5.7178 Y-0.0226 Z-0.153 I0.0197 J-0.0226
N465 X5.6783 Y0.0226 Z-0.1563 I-0.0197 J0.0226
N470 X5.7178 Y-0.0226 Z-0.1596 I0.0197 J-0.0226
N475 X5.6783 Y0.0226 Z-0.1629 I-0.0197 J0.0226
N480 X5.7178 Y-0.0226 Z-0.1662 I0.0197 J-0.0226
N485 X5.6783 Y0.0226 Z-0.1695 I-0.0197 J0.0226
N490 X5.7178 Y-0.0226 Z-0.1728 I0.0197 J-0.0226
N495 X5.6783 Y0.0226 Z-0.1761 I-0.0197 J0.0226
N500 X5.7178 Y-0.0226 Z-0.1794 I0.0197 J-0.0226
N505 X5.6783 Y0.0226 Z-0.1826 I-0.0197 J0.0226
N510 X5.7178 Y-0.0226 Z-0.1859 I0.0197 J-0.0226
N515 X5.6783 Y0.0226 Z-0.1892 I-0.0197 J0.0226
N520 X5.7178 Y-0.0226 Z-0.1925 I0.0197 J-0.0226
N525 X5.6783 Y0.0226 Z-0.1958 I-0.0197 J0.0226
N530 X5.7178 Y-0.0226 Z-0.1991 I0.0197 J-0.0226
N535 X5.7281 Y0. Z-0.2 I-0.0197 J0.0226
N540 X5.6681 I-0.03 J0.
N545 X5.7281 I0.03 J0.
N550 G1 X5.7288 Y0.0103 F45.5
N555 X5.729 Y0.0163
N560 X5.7273 Y0.022
N565 X5.7242 Y0.0272
N570 X5.7201 Y0.0316
N575 X5.7153 Y0.0351
N580 X5.7099 Y0.0378
N585 X5.7042 Y0.0395
N590 X5.6982 Y0.0403
N595 X5.6922 Y0.0401
N600 X5.6863 Y0.0389
N605 X5.6807 Y0.0369
N610 X5.6754 Y0.0341
N615 X5.6706 Y0.0305
N620 X5.6664 Y0.0262
N625 X5.6629 Y0.0213
N630 X5.6601 Y0.016
N635 X5.6582 Y0.0103
N640 X5.657 Y0.0044
N645 X5.6568 Y-0.0016
N650 X5.6575 Y-0.0075
N655 X5.659 Y-0.0134
N660 X5.6613 Y-0.0189
N665 X5.6644 Y-0.024
N670 X5.6682 Y-0.0286
N675 X5.6727 Y-0.0327
N680 X5.6777 Y-0.036
N685 X5.6831 Y-0.0386
N690 X5.6888 Y-0.0403
N695 X5.6948 Y-0.0412
N700 X5.7008 Y-0.0413
N705 X5.7067 Y-0.0405
N710 X5.7125 Y-0.0388
N715 X5.7179 Y-0.0363
N720 X5.723 Y-0.033
N725 X5.7275 Y-0.0291
N730 X5.7314 Y-0.0245
N735 X5.7347 Y-0.0195
N740 X5.7375 Y-0.0142
N745 X5.7399 Y-0.0087
N750 X5.7415 Y-0.0029
N755 X5.7425 Y0.003
N760 X5.7426 Y0.009
N765 X5.742 Y0.0149
N770 X5.7406 Y0.0208
N775 X5.7384 Y0.0264
N780 X5.7355 Y0.0316
N785 X5.7319 Y0.0364
N790 X5.7277 Y0.0407
N795 X5.723 Y0.0444
N800 X5.7178 Y0.0474
N805 X5.7123 Y0.0498
N810 X5.7065 Y0.0515
N815 X5.7006 Y0.0525
N820 X5.6946 Y0.0527
N825 X5.6886 Y0.0522
N830 X5.6828 Y0.0511
N835 X5.6771 Y0.0492
N840 X5.6716 Y0.0467
N845 X5.6665 Y0.0436
N850 X5.6617 Y0.0399
N855 X5.6575 Y0.0357
N860 X5.6537 Y0.031
N865 X5.6504 Y0.026
N870 X5.6478 Y0.0206
N875 X5.6458 Y0.0149
N880 X5.6444 Y0.0091
N885 X5.6437 Y0.0032
N890 X5.6436 Y-0.0028
N895 X5.6442 Y-0.0088
N900 X5.6455 Y-0.0147
N905 X5.6474 Y-0.0204
N910 X5.6499 Y-0.0258
N915 X5.653 Y-0.031
N920 X5.6566 Y-0.0357
N925 X5.6608 Y-0.0401
N930 X5.6654 Y-0.0439
N935 X5.6704 Y-0.0472
N940 X5.6757 Y-0.05
N945 X5.6813 Y-0.0521
N950 X5.6871 Y-0.0536
N955 X5.6931 Y-0.0545
N960 X5.6991 Y-0.0548
N965 X5.7051 Y-0.0543
N970 X5.711 Y-0.0532
N975 X5.7167 Y-0.0515
N980 X5.7222 Y-0.0492
N985 X5.7275 Y-0.0463
N990 X5.7324 Y-0.0429
N995 X5.737 Y-0.039
N1000 X5.7412 Y-0.0347
N1005 X5.745 Y-0.03
N1010 X5.7483 Y-0.025
N1015 X5.7511 Y-0.0197
N1020 X5.7534 Y-0.0142
N1025 X5.7552 Y-0.0085
N1030 X5.7564 Y-0.0026
N1035 X5.757 Y0.0034
N1040 Y0.0094
N1045 X5.7564 Y0.0153
N1050 X5.7553 Y0.0212
N1055 X5.7535 Y0.027
N1060 X5.7512 Y0.0325
N1065 X5.7483 Y0.0378
N1070 X5.7449 Y0.0427
N1075 X5.7411 Y0.0473
N1080 X5.7368 Y0.0515
N1085 X5.7321 Y0.0553
N1090 X5.7271 Y0.0586
N1095 X5.7218 Y0.0614
N1100 X5.7162 Y0.0636
N1105 X5.7105 Y0.0654
N1110 X5.7046 Y0.0665
N1115 X5.6986 Y0.0672
N1120 X5.6926
N1125 X5.6867 Y0.0667
N1130 X5.6808 Y0.0657
N1135 X5.675 Y0.0641
N1140 X5.6693 Y0.062
N1145 X5.6639 Y0.0594
N1150 X5.6588 Y0.0564
N1155 X5.6539 Y0.0528
N1160 X5.6494 Y0.0489
N1165 X5.6453 Y0.0446
N1170 X5.6415 Y0.0399
N1175 X5.6382 Y0.0349
N1180 X5.6353 Y0.0296
N1185 X5.6329 Y0.0241
N1190 X5.631 Y0.0184
N1195 X5.6296 Y0.0126
N1200 X5.6287 Y0.0067
N1205 X5.6283 Y0.0007
N1210 X5.6285 Y-0.0053
N1215 X5.6291 Y-0.0113
N1220 X5.6303 Y-0.0172
N1225 X5.632 Y-0.0229
N1230 X5.6342 Y-0.0285
N1235 X5.6368 Y-0.0339
N1240 X5.6399 Y-0.039
N1245 X5.6434 Y-0.0439
N1250 X5.6474 Y-0.0484
N1255 X5.6517 Y-0.0526
N1260 X5.6564 Y-0.0564
N1265 X5.6613 Y-0.0597
N1270 X5.6665 Y-0.0627
N1275 X5.672 Y-0.0651
N1280 X5.6777 Y-0.0671
N1285 X5.6835 Y-0.0687
N1290 X5.6894 Y-0.0697
N1295 X5.6954 Y-0.0702
N1300 X5.7014 Y-0.0701
N1305 X5.7074 Y-0.0696
N1310 X5.7133 Y-0.0686
N1315 X5.7191 Y-0.0671
N1320 X5.7247 Y-0.0651
N1325 X5.7302 Y-0.0627
N1330 X5.7355 Y-0.0599
N1335 X5.7406 Y-0.0566
N1340 X5.7453 Y-0.053
N1345 X5.7498 Y-0.049
N1350 X5.754 Y-0.0446
N1355 X5.7578 Y-0.04
N1360 X5.7612 Y-0.0351
N1365 X5.7642 Y-0.0299
N1370 X5.7669 Y-0.0245
N1375 X5.7691 Y-0.0189
N1380 X5.7708 Y-0.0132
N1385 X5.7721 Y-0.0073
N1390 X5.773 Y-0.0014
N1395 X5.7733 Y0.0046
N1400 X5.7732 Y0.0106
N1405 X5.7727 Y0.0166
N1410 X5.7716 Y0.0225
N1415 X5.7701 Y0.0283
N1420 X5.7682 Y0.034
N1425 X5.7658 Y0.0395
N1430 X5.763 Y0.0448
N1435 X5.7598 Y0.0499
N1440 X5.7562 Y0.0547
N1445 X5.7523 Y0.0592
N1450 X5.748 Y0.0634
N1455 X5.7434 Y0.0672
N1460 X5.7385 Y0.0707
N1465 X5.7334 Y0.0738
N1470 X5.728 Y0.0765
N1475 X5.7225 Y0.0788
N1480 X5.7168 Y0.0807
N1485 X5.711 Y0.0822
N1490 X5.705 Y0.0832
N1495 X5.6991 Y0.0837
N1500 X5.6931 Y0.0838
N1505 X5.6871 Y0.0835
N1510 X5.6811 Y0.0828
N1515 X5.6752 Y0.0816
N1520 X5.6695 Y0.0799
N1525 X5.6638 Y0.0779
N1530 X5.6583 Y0.0755
N1535 X5.6531 Y0.0726
N1540 X5.648 Y0.0694
N1545 X5.6432 Y0.0659
N1550 X5.6386 Y0.062
N1555 X5.6343 Y0.0578
N1560 X5.6304 Y0.0532
N1565 X5.6267 Y0.0485
N1570 X5.6234 Y0.0435
N1575 X5.6205 Y0.0382
N1580 X5.618 Y0.0328
N1585 X5.6158 Y0.0272
N1590 X5.614 Y0.0215
N1595 X5.6127 Y0.0156
N1600 X5.6117 Y0.0097
N1605 X5.6112 Y0.0037
N1610 X5.6111 Y-0.0023
N1615 X5.6114 Y-0.0083
N1620 X5.6121 Y-0.0142
N1625 X5.6133 Y-0.0201
N1630 X5.6148 Y-0.0259
N1635 X5.6168 Y-0.0316
N1640 X5.6191 Y-0.0371
N1645 X5.6218 Y-0.0425
N1650 X5.6249 Y-0.0476
N1655 X5.6283 Y-0.0526
N1660 X5.6321 Y-0.0573
N1665 X5.6361 Y-0.0617
N1670 X5.6405 Y-0.0658
N1675 X5.6451 Y-0.0696
N1680 X5.6572 Y-0.0769
N1685 X5.6702 Y-0.0822
N1690 X5.6839 Y-0.0854
N1695 X5.6979 Y-0.0865
N1700 X5.6981
N1705 X5.7061 Y-0.0861
N1710 X5.712 Y-0.0855
N1715 X5.718 Y-0.0846
N1720 X5.7238 Y-0.0832
N1725 X5.7295 Y-0.0814
N1730 X5.7351 Y-0.0793
N1735 X5.7406 Y-0.0768
N1740 X5.7458 Y-0.0739
N1745 X5.7509 Y-0.0707
N1750 X5.7557 Y-0.0671
N1755 X5.7603 Y-0.0633
N1760 X5.7647 Y-0.0591
N1765 X5.7687 Y-0.0547
N1770 X5.7725 Y-0.05
N1775 X5.776 Y-0.0451
N1780 X5.7791 Y-0.04
N1785 X5.7819 Y-0.0347
N1790 X5.7844 Y-0.0292
N1795 X5.7865 Y-0.0236
N1800 X5.7882 Y-0.0179
N1805 X5.7896 Y-0.012
N1810 X5.7906 Y-0.0061
N1815 X5.7912 Y-0.0001
N1820 X5.7914 Y0.0059
N1825 X5.7912 Y0.0119
N1830 X5.7907 Y0.0178
N1835 X5.7873 Y0.0318
N1840 X5.7815 Y0.0448
N1845 X5.7735 Y0.0567
N1850 X5.7635 Y0.067
N1855 X5.7518 Y0.0753
N1860 X5.7389 Y0.0815
N1865 X5.7251 Y0.0852
N1870 X5.7108 Y0.0865
N1875 X5.6685
N1880 X5.6625 Y0.0862
N1885 X5.6566 Y0.0854
N1890 X5.6508 Y0.084
N1895 X5.6451 Y0.082
N1900 X5.6396 Y0.0795
N1905 X5.6344 Y0.0766
N1910 X5.6294 Y0.0733
N1915 X5.6247 Y0.0695
N1920 X5.6203 Y0.0655
N1925 X5.6162 Y0.0611
N1930 X5.6124 Y0.0565
N1935 X5.6089 Y0.0516
N1940 X5.6057 Y0.0465
N1945 X5.6028 Y0.0413
N1950 X5.6003 Y0.0358
N1955 X5.5982 Y0.0302
N1960 X5.5964 Y0.0245
N1965 X5.595 Y0.0186
N1970 X5.5939 Y0.0127
N1975 X5.5931 Y0.0068
N1980 X5.5928 Y0.0008
N1985 Y-0.0052
N1990 X5.5931 Y-0.0112
N1995 X5.5938 Y-0.0171
N2000 X5.5948 Y-0.0231
N2005 X5.5999 Y-0.038
N2010 X5.6077 Y-0.0516
N2015 X5.618 Y-0.0635
N2020 X5.6303 Y-0.0733
N2025 X5.6443 Y-0.0805
N2030 X5.6593 Y-0.085
N2035 X5.675 Y-0.0865
N2040 X5.6979
N2045 X5.6981 F30.
N2050 X5.7327 F45.5
N2055 X5.7387 Y-0.0862
N2060 X5.7447 Y-0.0853
N2065 X5.7505 Y-0.0838
N2070 X5.7622 Y-0.0781
N2075 X5.7726 Y-0.07
N2080 X5.7812 Y-0.0601
N2085 X5.7875 Y-0.0487
N2090 X5.7915 Y-0.0362
N2095 X5.7928 Y-0.0231
N2100 G3 X5.7905 Y-0.0136 I-0.025 J-0.0009 F30.
N2105 X5.7493 Y-0.0072 I-0.0227 J-0.0104 F135.
N2110 G1 X5.7151 Y-0.0447
N2115 G3 X5.7232 Y-0.0843 I0.0185 J-0.0168
N2120 X5.7327 Y-0.0865 I0.0104 J0.0227 F30.
N2125 G1 X5.7537 F45.5
N2130 X5.7597 Y-0.0862
N2135 X5.7656 Y-0.0851
N2140 X5.7745 Y-0.0807
N2145 X5.7821 Y-0.0742
N2150 X5.7879 Y-0.066
N2155 X5.7916 Y-0.0567
N2160 X5.7928 Y-0.0468
N2165 G3 X5.7912 Y-0.0371 I-0.0378 J-0.0013 F30.
N2170 X5.7449 Y-0.0116 I-0.0362 J-0.011 F135.
N2175 X5.744 Y-0.0849 I0.0102 J-0.0368
N2180 X5.7537 Y-0.0865 I0.011 J0.0365 F30.
N2185 G1 X5.7646 F45.5
N2190 X5.7688 Y-0.0864
N2195 X5.7729 Y-0.0859
N2200 X5.775 Y-0.0853
N2205 X5.7771 Y-0.0845
N2210 X5.7792 Y-0.0835
N2215 X5.7813 Y-0.0823
N2220 X5.7833 Y-0.0808
N2225 X5.7853 Y-0.0789
N2230 X5.7877 Y-0.0761
N2235 X5.7896 Y-0.0733
N2240 X5.7909 Y-0.0706
N2245 X5.7922 Y-0.0665
N2250 X5.7928 Y-0.0623
N2255 Y-0.0457
N2260 Y0.0337
N2265 X5.7925 Y0.0396
N2270 X5.7916 Y0.0456
N2275 X5.7872 Y0.0568
N2280 X5.7805 Y0.0668
N2285 X5.7717 Y0.0751
N2290 X5.7614 Y0.0813
N2295 X5.75 Y0.0852
N2300 X5.738 Y0.0865
N2305 G3 X5.7283 Y0.0852 I0.0018 J-0.0513 F30.
N2310 X5.6907 Y0.0204 I0.0115 J-0.05 F135.
N2315 X5.7915 Y0.0239 I0.05 J0.0151
N2320 X5.7928 Y0.0337 I-0.0509 J0.0115 F30.
N2325 G1 Y0.054 F45.5
N2330 X5.7925 Y0.06
N2335 X5.789 Y0.0686
N2340 X5.7834 Y0.076
N2345 X5.7761 Y0.0817
N2350 X5.7676 Y0.0853
N2355 X5.7584 Y0.0865
N2360 G3 X5.7488 Y0.0846 I0.0011 J-0.0316 F30.
N2365 X5.7294 Y0.045 I0.0107 J-0.0298 F135.
N2370 X5.791 Y0.0444 I0.0309 J0.0101
N2375 X5.7928 Y0.054 I-0.0307 J0.0107 F30.
N2380 G1 Y0.0623 F45.5
N2385 X5.7922 Y0.0665
N2390 X5.7909 Y0.0706
N2395 X5.7896 Y0.0733
N2400 X5.7877 Y0.0761
N2405 X5.7853 Y0.0789
N2410 X5.7833 Y0.0808
N2415 X5.7813 Y0.0823
N2420 X5.7792 Y0.0835
N2425 X5.7771 Y0.0845
N2430 X5.775 Y0.0853
N2435 X5.7729 Y0.0859
N2440 X5.7688 Y0.0864
N2445 X5.7646 Y0.0865
N2450 X5.7108
N2455 G3 X5.6996 Y0.0834 I0.0009 J-0.025 F135.
N2460 G2 X5.6728 Y0.085 I-0.0121 J0.0219
N2465 G3 X5.6685 Y0.0865 I-0.0046 J-0.0063
N2470 G1 X5.6436 F45.5
N2475 X5.6376 Y0.0862
N2480 X5.6317 Y0.0851
N2485 X5.626 Y0.0832
N2490 X5.6205 Y0.0808
N2495 X5.6153 Y0.0778
N2500 X5.6104 Y0.0744
N2505 X5.6057 Y0.0706
N2510 X5.6013 Y0.0665
N2515 X5.5973 Y0.0621
N2520 X5.5935 Y0.0574
N2525 X5.5901 Y0.0525
N2530 X5.587 Y0.0473
N2535 X5.5842 Y0.042
N2540 X5.5817 Y0.0365
N2545 X5.5796 Y0.0309
N2550 X5.5778 Y0.0252
N2555 X5.5763 Y0.0194
N2560 X5.5751 Y0.0135
N2565 X5.5743 Y0.0076
N2570 X5.5739 Y0.0016
N2575 X5.5737 Y-0.0044
N2580 X5.574 Y-0.0104
N2585 X5.5746 Y-0.0164
N2590 X5.5781 Y-0.0306
N2595 X5.584 Y-0.044
N2600 X5.5923 Y-0.0561
N2605 X5.6025 Y-0.0666
N2610 X5.6144 Y-0.0751
N2615 X5.6277 Y-0.0813
N2620 X5.6418 Y-0.0852
N2625 X5.6564 Y-0.0865
N2630 X5.675
N2635 G3 X5.6845 Y-0.0843 I-0.0009 J0.025 F30.
N2640 X5.6984 Y-0.0553 I-0.0104 J0.0227 F135.
N2645 G1 X5.6669 Y0.0677
N2650 G3 X5.6531 Y0.0843 I-0.0242 J-0.0062
N2655 X5.6436 Y0.0865 I-0.0104 J-0.0227 F30.
N2660 G1 X5.6232 F45.5
N2665 X5.6172 Y0.0862
N2670 X5.6113 Y0.085
N2675 X5.6057 Y0.083
N2680 X5.6002 Y0.0805
N2685 X5.5951 Y0.0774
N2690 X5.5902 Y0.0739
N2695 X5.5857 Y0.07
N2700 X5.5814 Y0.0658
N2705 X5.5774 Y0.0613
N2710 X5.5738 Y0.0565
N2715 X5.5704 Y0.0515
N2720 X5.5674 Y0.0463
N2725 X5.5647 Y0.041
N2730 X5.5623 Y0.0355
N2735 X5.5602 Y0.0299
N2740 X5.5584 Y0.0241
N2745 X5.557 Y0.0183
N2750 X5.5559 Y0.0124
N2755 X5.5552 Y0.0065
N2760 X5.5548 Y0.0005
N2765 Y-0.0055
N2770 X5.5551 Y-0.0115
N2775 X5.5557 Y-0.0175
N2780 X5.5595 Y-0.0315
N2785 X5.5656 Y-0.0447
N2790 X5.5739 Y-0.0567
N2795 X5.5842 Y-0.0669
N2800 X5.5961 Y-0.0753
N2805 X5.6093 Y-0.0815
N2810 X5.6234 Y-0.0852
N2815 X5.6379 Y-0.0865
N2820 X5.6564
N2825 G3 X5.6659 Y-0.0843 I-0.0009 J0.025 F30.
N2830 X5.6797 Y-0.055 I-0.0104 J0.0227 F135.
N2835 G1 X5.6465 Y0.068
N2840 G3 X5.6327 Y0.0843 I-0.0241 J-0.0065
N2845 X5.6232 Y0.0865 I-0.0104 J-0.0227 F30.
N2850 G1 X5.6041 F45.5
N2855 X5.5981 Y0.0862
N2860 X5.5922 Y0.085
N2865 X5.5865 Y0.0831
N2870 X5.5811 Y0.0805
N2875 X5.5759 Y0.0774
N2880 X5.5711 Y0.0739
N2885 X5.5665 Y0.07
N2890 X5.5623 Y0.0657
N2895 X5.5583 Y0.0612
N2900 X5.5547 Y0.0565
N2905 X5.5513 Y0.0515
N2910 X5.5483 Y0.0463
N2915 X5.5456 Y0.0409
N2920 X5.5432 Y0.0354
N2925 X5.5411 Y0.0298
N2930 X5.5394 Y0.0241
N2935 X5.5379 Y0.0182
N2940 X5.5369 Y0.0123
N2945 X5.5362 Y0.0064
N2950 X5.5358 Y0.0004
N2955 Y-0.0056
N2960 X5.5361 Y-0.0116
N2965 X5.5368 Y-0.0176
N2970 X5.5378 Y-0.0235
N2975 X5.5428 Y-0.0383
N2980 X5.5505 Y-0.0518
N2985 X5.5607 Y-0.0637
N2990 X5.5729 Y-0.0734
N2995 X5.5868 Y-0.0806
N3000 X5.6017 Y-0.085
N3005 X5.6173 Y-0.0865
N3010 X5.6379
N3015 G3 X5.6474 Y-0.0843 I-0.0009 J0.025 F30.
N3020 X5.6611 Y-0.0549 I-0.0104 J0.0227 F135.
N3025 G1 X5.6273 Y0.0681
N3030 G3 X5.6135 Y0.0843 I-0.0241 J-0.0066
N3035 X5.6041 Y0.0865 I-0.0104 J-0.0227 F30.
N3040 G1 X5.5854 F45.5
N3045 X5.5794 Y0.0862
N3050 X5.5735 Y0.0851
N3055 X5.5678 Y0.0832
N3060 X5.5623 Y0.0806
N3065 X5.5572 Y0.0776
N3070 X5.5523 Y0.0741
N3075 X5.5477 Y0.0702
N3080 X5.5435 Y0.066
N3085 X5.5395 Y0.0615
N3090 X5.5358 Y0.0567
N3095 X5.5325 Y0.0517
N3100 X5.5294 Y0.0466
N3105 X5.5267 Y0.0412
N3110 X5.5243 Y0.0357
N3115 X5.5222 Y0.0301
N3120 X5.5205 Y0.0244
N3125 X5.519 Y0.0185
N3130 X5.5179 Y0.0127
N3135 X5.5171 Y0.0067
N3140 X5.5167 Y0.0007
N3145 X5.5166 Y-0.0053
N3150 X5.5169 Y-0.0113
N3155 X5.5175 Y-0.0172
N3160 X5.5176 Y-0.0177
N3165 X5.5211 Y-0.0317
N3170 X5.527 Y-0.0448
N3175 X5.5352 Y-0.0567
N3180 X5.5453 Y-0.067
N3185 X5.557 Y-0.0753
N3190 X5.57 Y-0.0815
N3195 X5.5839 Y-0.0852
N3200 X5.5983 Y-0.0865
N3205 X5.6173
N3210 G3 X5.6268 Y-0.0843 I-0.0009 J0.025 F30.
N3215 X5.6406 Y-0.0552 I-0.0104 J0.0227 F135.
N3220 G1 X5.6087 Y0.0678
N3225 G3 X5.5949 Y0.0843 I-0.0242 J-0.0063
N3230 X5.5854 Y0.0865 I-0.0104 J-0.0227 F30.
N3235 G1 X5.565 F45.5
N3240 X5.559 Y0.0862
N3245 X5.5531 Y0.0849
N3250 X5.5475 Y0.0828
N3255 X5.5421 Y0.0801
N3260 X5.537 Y0.0769
N3265 X5.5322 Y0.0733
N3270 X5.5277 Y0.0694
N3275 X5.5235 Y0.0651
N3280 X5.5196 Y0.0605
N3285 X5.516 Y0.0557
N3290 X5.5128 Y0.0507
N3295 X5.5098 Y0.0455
N3300 X5.5071 Y0.0401
N3305 X5.5048 Y0.0346
N3310 X5.5027 Y0.0289
N3315 X5.501 Y0.0232
N3320 X5.4996 Y0.0174
N3325 X5.4986 Y0.0114
N3330 X5.4979 Y0.0055
N3335 X5.4975 Y-0.0005
N3340 X5.4976 Y-0.0065
N3345 X5.4979 Y-0.0125
N3350 X5.4986 Y-0.0185
N3355 X5.5023 Y-0.0323
N3360 X5.5085 Y-0.0453
N3365 X5.5167 Y-0.0571
N3370 X5.5269 Y-0.0672
N3375 X5.5387 Y-0.0755
N3380 X5.5517 Y-0.0815
N3385 X5.5656 Y-0.0852
N3390 X5.5799 Y-0.0865
N3395 X5.5983
N3400 G3 X5.6077 Y-0.0843 I-0.0009 J0.025 F30.
N3405 X5.6215 Y-0.055 I-0.0104 J0.0227 F135.
N3410 G1 X5.5882 Y0.068
N3415 G3 X5.5745 Y0.0843 I-0.0241 J-0.0065
N3420 X5.565 Y0.0865 I-0.0104 J-0.0227 F30.
N3425 G1 X5.547 F45.5
N3430 X5.541 Y0.0862
N3435 X5.5351 Y0.085
N3440 X5.5294 Y0.0831
N3445 X5.524 Y0.0805
N3450 X5.5188 Y0.0774
N3455 X5.514 Y0.0739
N3460 X5.5094 Y0.07
N3465 X5.5052 Y0.0658
N3470 X5.5012 Y0.0613
N3475 X5.4976 Y0.0565
N3480 X5.4942 Y0.0515
N3485 X5.4912 Y0.0463
N3490 X5.4885 Y0.041
N3495 X5.4861 Y0.0355
N3500 X5.484 Y0.0299
N3505 X5.4822 Y0.0241
N3510 X5.4808 Y0.0183
N3515 X5.4797 Y0.0124
N3520 X5.4789 Y0.0065
N3525 X5.4785 Y0.0005
N3530 Y-0.0055
N3535 X5.4788 Y-0.0115
N3540 X5.4794 Y-0.0175
N3545 X5.4831 Y-0.0315
N3550 X5.4892 Y-0.0447
N3555 X5.4975 Y-0.0566
N3560 X5.5078 Y-0.0669
N3565 X5.5197 Y-0.0753
N3570 X5.5329 Y-0.0814
N3575 X5.5469 Y-0.0852
N3580 X5.5614 Y-0.0865
N3585 X5.5799
N3590 G3 X5.5894 Y-0.0843 I-0.0009 J0.025 F30.
N3595 X5.6032 Y-0.055 I-0.0104 J0.0227 F135.
N3600 G1 X5.5702 Y0.068
N3605 G3 X5.5564 Y0.0843 I-0.0241 J-0.0065
N3610 X5.547 Y0.0865 I-0.0104 J-0.0227 F30.
N3615 G1 X5.5274 F45.5
N3620 X5.5214 Y0.0862
N3625 X5.5156 Y0.085
N3630 X5.5099 Y0.0829
N3635 X5.5045 Y0.0803
N3640 X5.4994 Y0.0772
N3645 X5.4946 Y0.0736
N3650 X5.49 Y0.0697
N3655 X5.4858 Y0.0655
N3660 X5.4819 Y0.0609
N3665 X5.4782 Y0.0562
N3670 X5.4749 Y0.0512
N3675 X5.4719 Y0.046
N3680 X5.4692 Y0.0406
N3685 X5.4668 Y0.0351
N3690 X5.4648 Y0.0295
N3695 X5.463 Y0.0237
N3700 X5.4616 Y0.0179
N3705 X5.4606 Y0.012
N3710 X5.4599 Y0.006
N3715 X5.4595 Y0.
N3720 Y-0.006
N3725 X5.4598 Y-0.012
N3730 X5.4605 Y-0.0179
N3735 X5.4616 Y-0.0238
N3740 X5.4666 Y-0.0385
N3745 X5.4743 Y-0.052
N3750 X5.4844 Y-0.0638
N3755 X5.4966 Y-0.0735
N3760 X5.5104 Y-0.0806
N3765 X5.5253 Y-0.085
N3770 X5.5407 Y-0.0865
N3775 X5.5614
N3780 G3 X5.5709 Y-0.0843 I-0.0009 J0.025 F30.
N3785 X5.5846 Y-0.0549 I-0.0104 J0.0227 F135.
N3790 G1 X5.5507 Y0.0682
N3795 G3 X5.5369 Y0.0843 I-0.0241 J-0.0066
N3800 X5.5274 Y0.0865 I-0.0104 J-0.0227 F30.
N3805 G1 X5.5084 F45.5
N3810 X5.5024 Y0.0862
N3815 X5.4966 Y0.085
N3820 X5.4909 Y0.083
N3825 X5.4855 Y0.0804
N3830 X5.4804 Y0.0772
N3835 X5.4755 Y0.0737
N3840 X5.471 Y0.0698
N3845 X5.4668 Y0.0655
N3850 X5.4628 Y0.061
N3855 X5.4592 Y0.0562
N3860 X5.4559 Y0.0512
N3865 X5.4529 Y0.046
N3870 X5.4502 Y0.0407
N3875 X5.4478 Y0.0352
N3880 X5.4457 Y0.0295
N3885 X5.444 Y0.0238
N3890 X5.4426 Y0.0179
N3895 X5.4415 Y0.012
N3900 X5.4408 Y0.0061
N3905 X5.4404 Y0.0001
N3910 X5.4403 Y-0.0059
N3915 X5.4406 Y-0.0119
N3920 X5.4413 Y-0.0179
N3925 X5.4449 Y-0.0318
N3930 X5.4508 Y-0.0449
N3935 X5.459 Y-0.0568
N3940 X5.4691 Y-0.067
N3945 X5.4809 Y-0.0753
N3950 X5.4939 Y-0.0815
N3955 X5.5078 Y-0.0852
N3960 X5.5222 Y-0.0865
N3965 X5.5407
N3970 G3 X5.5502 Y-0.0843 I-0.0009 J0.025 F30.
N3975 X5.5641 Y-0.0552 I-0.0104 J0.0227 F135.
N3980 G1 X5.5317 Y0.0679
N3985 G3 X5.5179 Y0.0843 I-0.0242 J-0.0064
N3990 X5.5084 Y0.0865 I-0.0104 J-0.0227 F30.
N3995 G1 X5.4901 F45.5
N4000 X5.4841 Y0.0862
N4005 X5.4782 Y0.0851
N4010 X5.4725 Y0.0832
N4015 X5.4671 Y0.0807
N4020 X5.4619 Y0.0776
N4025 X5.4571 Y0.0741
N4030 X5.4525 Y0.0702
N4035 X5.4482 Y0.066
N4040 X5.4442 Y0.0615
N4045 X5.4406 Y0.0568
N4050 X5.4372 Y0.0518
N4055 X5.4341 Y0.0466
N4060 X5.4314 Y0.0413
N4065 X5.429 Y0.0358
N4070 X5.4269 Y0.0302
N4075 X5.4251 Y0.0245
N4080 X5.4236 Y0.0186
N4085 X5.4225 Y0.0127
N4090 X5.4217 Y0.0068
N4095 X5.4213 Y0.0008
N4100 X5.4212 Y-0.0052
N4105 X5.4215 Y-0.0112
N4110 X5.4221 Y-0.0172
N4115 X5.4258 Y-0.0313
N4120 X5.4318 Y-0.0445
N4125 X5.4401 Y-0.0565
N4130 X5.4503 Y-0.0668
N4135 X5.4622 Y-0.0752
N4140 X5.4754 Y-0.0814
N4145 X5.4895 Y-0.0852
N4150 X5.504 Y-0.0865
N4155 X5.5222
N4160 G3 X5.5317 Y-0.0843 I-0.0009 J0.025 F30.
N4165 X5.5455 Y-0.0552 I-0.0104 J0.0227 F135.
N4170 G1 X5.5134 Y0.0678
N4175 G3 X5.4996 Y0.0843 I-0.0242 J-0.0063
N4180 X5.4901 Y0.0865 I-0.0104 J-0.0227 F30.
N4185 G1 X5.471 F45.5
N4190 X5.465 Y0.0862
N4195 X5.4591 Y0.0851
N4200 X5.4534 Y0.0832
N4205 X5.448 Y0.0806
N4210 X5.4428 Y0.0775
N4215 X5.4379 Y0.074
N4220 X5.4333 Y0.0702
N4225 X5.4291 Y0.0659
N4230 X5.4251 Y0.0614
N4235 X5.4214 Y0.0567
N4240 X5.4181 Y0.0517
N4245 X5.415 Y0.0466
N4250 X5.4123 Y0.0412
N4255 X5.4099 Y0.0357
N4260 X5.4078 Y0.0301
N4265 X5.406 Y0.0244
N4270 X5.4045 Y0.0186
N4275 X5.4034 Y0.0127
N4280 X5.4027 Y0.0067
N4285 X5.4023 Y0.0007
N4290 X5.4022 Y-0.0053
N4295 X5.4025 Y-0.0113
N4300 X5.4032 Y-0.0172
N4305 X5.4042 Y-0.0232
N4310 X5.4091 Y-0.038
N4315 X5.4168 Y-0.0516
N4320 X5.4269 Y-0.0635
N4325 X5.4392 Y-0.0733
N4330 X5.453 Y-0.0805
N4335 X5.468 Y-0.085
N4340 X5.4836 Y-0.0865
N4345 X5.504
N4350 G3 X5.5135 Y-0.0843 I-0.0009 J0.025 F30.
N4355 X5.5273 Y-0.055 I-0.0104 J0.0227 F135.
N4360 G1 X5.4942 Y0.068
N4365 G3 X5.4804 Y0.0843 I-0.0241 J-0.0065
N4370 X5.471 Y0.0865 I-0.0104 J-0.0227 F30.
N4375 G1 X5.4511 F45.5
N4380 X5.4451 Y0.0862
N4385 X5.4393 Y0.0849
N4390 X5.4336 Y0.0829
N4395 X5.4282 Y0.0803
N4400 X5.4231 Y0.0772
N4405 X5.4183 Y0.0736
N4410 X5.4137 Y0.0697
N4415 X5.4095 Y0.0654
N4420 X5.4056 Y0.0609
N4425 X5.4019 Y0.0561
N4430 X5.3986 Y0.0511
N4435 X5.3956 Y0.0459
N4440 X5.3929 Y0.0406
N4445 X5.3905 Y0.0351
N4450 X5.3885 Y0.0294
N4455 X5.3867 Y0.0237
N4460 X5.3853 Y0.0179
N4465 X5.3842 Y0.012
N4470 X5.3835 Y0.006
N4475 X5.3831 Y0.
N4480 Y-0.006
N4485 X5.3834 Y-0.012
N4490 X5.3841 Y-0.0179
N4495 X5.3877 Y-0.0319
N4500 X5.3936 Y-0.045
N4505 X5.4018 Y-0.0568
N4510 X5.4119 Y-0.067
N4515 X5.4237 Y-0.0754
N4520 X5.4367 Y-0.0815
N4525 X5.4506 Y-0.0852
N4530 X5.4649 Y-0.0865
N4535 X5.4836
N4540 G3 X5.4931 Y-0.0843 I-0.0009 J0.025 F30.
N4545 X5.5069 Y-0.0551 I-0.0104 J0.0227 F135.
N4550 G1 X5.4744 Y0.0679
N4555 G3 X5.4606 Y0.0843 I-0.0242 J-0.0064
N4560 X5.4511 Y0.0865 I-0.0104 J-0.0227 F30.
N4565 G1 X5.4319 F45.5
N4570 X5.4259 Y0.0862
N4575 X5.42 Y0.0849
N4580 X5.4144 Y0.0829
N4585 X5.409 Y0.0802
N4590 X5.4039 Y0.0771
N4595 X5.3991 Y0.0735
N4600 X5.3945 Y0.0696
N4605 X5.3903 Y0.0653
N4610 X5.3864 Y0.0608
N4615 X5.3828 Y0.056
N4620 X5.3795 Y0.051
N4625 X5.3765 Y0.0458
N4630 X5.3738 Y0.0404
N4635 X5.3714 Y0.0349
N4640 X5.3693 Y0.0293
N4645 X5.3676 Y0.0236
N4650 X5.3662 Y0.0177
N4655 X5.3651 Y0.0118
N4660 X5.3644 Y0.0059
N4665 X5.364 Y-0.0001
N4670 Y-0.0061
N4675 X5.3643 Y-0.0121
N4680 X5.365 Y-0.0181
N4685 X5.3687 Y-0.032
N4690 X5.3749 Y-0.0451
N4695 X5.3831 Y-0.0569
N4700 X5.3933 Y-0.0671
N4705 X5.4052 Y-0.0754
N4710 X5.4183 Y-0.0815
N4715 X5.4322 Y-0.0852
N4720 X5.4466 Y-0.0865
N4725 X5.4649
N4730 G3 X5.4744 Y-0.0843 I-0.0009 J0.025 F30.
N4735 X5.4882 Y-0.055 I-0.0104 J0.0227 F135.
N4740 G1 X5.4551 Y0.068
N4745 G3 X5.4414 Y0.0843 I-0.0241 J-0.0065
N4750 X5.4319 Y0.0865 I-0.0104 J-0.0227 F30.
N4755 G1 X5.4127 F45.5
N4760 X5.4067 Y0.0862
N4765 X5.4009 Y0.0849
N4770 X5.3952 Y0.0829
N4775 X5.3898 Y0.0802
N4780 X5.3847 Y0.0771
N4785 X5.3799 Y0.0735
N4790 X5.3754 Y0.0696
N4795 X5.3712 Y0.0653
N4800 X5.3672 Y0.0608
N4805 X5.3636 Y0.056
N4810 X5.3603 Y0.051
N4815 X5.3573 Y0.0458
N4820 X5.3546 Y0.0404
N4825 X5.3523 Y0.0349
N4830 X5.3502 Y0.0292
N4835 X5.3485 Y0.0235
N4840 X5.3471 Y0.0177
N4845 X5.3461 Y0.0118
N4850 X5.3453 Y0.0058
N4855 X5.345 Y-0.0002
N4860 Y-0.0062
N4865 X5.3453 Y-0.0122
N4870 X5.346 Y-0.0181
N4875 X5.3498 Y-0.0321
N4880 X5.356 Y-0.0452
N4885 X5.3643 Y-0.057
N4890 X5.3745 Y-0.0672
N4895 X5.3864 Y-0.0754
N4900 X5.3995 Y-0.0815
N4905 X5.4134 Y-0.0852
N4910 X5.4278 Y-0.0865
N4915 X5.4466
N4920 G3 X5.4561 Y-0.0843 I-0.0009 J0.025 F30.
N4925 X5.4698 Y-0.0549 I-0.0104 J0.0227 F135.
N4930 G1 X5.436 Y0.0681
N4935 G3 X5.4222 Y0.0843 I-0.0241 J-0.0066
N4940 X5.4127 Y0.0865 I-0.0104 J-0.0227 F30.
N4945 G1 X5.394 F45.5
N4950 X5.388 Y0.0862
N4955 X5.3822 Y0.085
N4960 X5.3765 Y0.083
N4965 X5.3711 Y0.0804
N4970 X5.366 Y0.0773
N4975 X5.3611 Y0.0737
N4980 X5.3566 Y0.0698
N4985 X5.3523 Y0.0656
N4990 X5.3484 Y0.061
N4995 X5.3448 Y0.0563
N5000 X5.3414 Y0.0513
N5005 X5.3384 Y0.0461
N5010 X5.3357 Y0.0407
N5015 X5.3333 Y0.0352
N5020 X5.3313 Y0.0296
N5025 X5.3295 Y0.0238
N5030 X5.3281 Y0.018
N5035 X5.3271 Y0.0121
N5040 X5.3263 Y0.0061
N5045 X5.326 Y0.0002
N5050 Y-0.0058
N5055 X5.3263 Y-0.0118
N5060 X5.327 Y-0.0178
N5065 X5.328 Y-0.0237
N5070 X5.333 Y-0.0384
N5075 X5.3407 Y-0.052
N5080 X5.3509 Y-0.0638
N5085 X5.3631 Y-0.0734
N5090 X5.3769 Y-0.0806
N5095 X5.3918 Y-0.085
N5100 X5.4073 Y-0.0865
N5105 X5.4278
N5110 G3 X5.4373 Y-0.0843 I-0.0009 J0.025 F30.
N5115 X5.4511 Y-0.0549 I-0.0104 J0.0227 F135.
N5120 G1 X5.4173 Y0.0681
N5125 G3 X5.4035 Y0.0843 I-0.0241 J-0.0066
N5130 X5.394 Y0.0865 I-0.0104 J-0.0227 F30.
N5135 G1 X5.3753 F45.5
N5140 X5.3693 Y0.0862
N5145 X5.3635 Y0.085
N5150 X5.3578 Y0.0831
N5155 X5.3524 Y0.0805
N5160 X5.3472 Y0.0774
N5165 X5.3423 Y0.0739
N5170 X5.3378 Y0.07
N5175 X5.3335 Y0.0658
N5180 X5.3296 Y0.0613
N5185 X5.3259 Y0.0565
N5190 X5.3226 Y0.0516
N5195 X5.3195 Y0.0464
N5200 X5.3168 Y0.041
N5205 X5.3144 Y0.0355
N5210 X5.3123 Y0.0299
N5215 X5.3106 Y0.0242
N5220 X5.3091 Y0.0183
N5225 X5.308 Y0.0124
N5230 X5.3073 Y0.0065
N5235 X5.3069 Y0.0005
N5240 X5.3068 Y-0.0055
N5245 X5.3071 Y-0.0115
N5250 X5.3077 Y-0.0175
N5255 X5.3113 Y-0.0315
N5260 X5.3172 Y-0.0447
N5265 X5.3254 Y-0.0566
N5270 X5.3355 Y-0.0669
N5275 X5.3473 Y-0.0753
N5280 X5.3604 Y-0.0814
N5285 X5.3744 Y-0.0852
N5290 X5.3888 Y-0.0865
N5295 X5.4073
N5300 G3 X5.4168 Y-0.0843 I-0.0009 J0.025 F30.
N5305 X5.4306 Y-0.0552 I-0.0104 J0.0227 F135.
N5310 G1 X5.3987 Y0.0678
N5315 G3 X5.3848 Y0.0843 I-0.0242 J-0.0063
N5320 X5.3753 Y0.0865 I-0.0104 J-0.0227 F30.
N5325 G1 X5.3556 F45.5
N5330 X5.3496 Y0.0862
N5335 X5.3438 Y0.0849
N5340 X5.3381 Y0.0829
N5345 X5.3327 Y0.0803
N5350 X5.3276 Y0.0771
N5355 X5.3228 Y0.0736
N5360 X5.3183 Y0.0696
N5365 X5.314 Y0.0654
N5370 X5.3101 Y0.0608
N5375 X5.3065 Y0.056
N5380 X5.3032 Y0.051
N5385 X5.3002 Y0.0458
N5390 X5.2975 Y0.0405
N5395 X5.2951 Y0.035
N5400 X5.2931 Y0.0293
N5405 X5.2913 Y0.0236
N5410 X5.2899 Y0.0178
N5415 X5.2889 Y0.0119
N5420 X5.2881 Y0.0059
N5425 X5.2877 Y-0.0001
N5430 X5.2878 Y-0.0061
N5435 X5.2881 Y-0.0121
N5440 X5.2887 Y-0.018
N5445 X5.2925 Y-0.032
N5450 X5.2986 Y-0.0451
N5455 X5.3069 Y-0.0569
N5460 X5.3171 Y-0.0671
N5465 X5.3289 Y-0.0754
N5470 X5.342 Y-0.0815
N5475 X5.356 Y-0.0852
N5480 X5.3704 Y-0.0865
N5485 X5.3888
N5490 G3 X5.3983 Y-0.0843 I-0.0009 J0.025 F30.
N5495 X5.412 Y-0.055 I-0.0104 J0.0227 F135.
N5500 G1 X5.3789 Y0.068
N5505 G3 X5.3651 Y0.0843 I-0.0241 J-0.0065
N5510 X5.3556 Y0.0865 I-0.0104 J-0.0227 F30.
N5515 G1 X5.3361 F45.5
N5520 X5.3301 Y0.0862
N5525 X5.3243 Y0.0849
N5530 X5.3186 Y0.0828
N5535 X5.3133 Y0.0801
N5540 X5.3082 Y0.0769
N5545 X5.3034 Y0.0733
N5550 X5.2989 Y0.0694
N5555 X5.2947 Y0.0651
N5560 X5.2908 Y0.0605
N5565 X5.2872 Y0.0557
N5570 X5.2839 Y0.0507
N5575 X5.2809 Y0.0455
N5580 X5.2782 Y0.0401
N5585 X5.2759 Y0.0346
N5590 X5.2738 Y0.029
N5595 X5.2721 Y0.0232
N5600 X5.2707 Y0.0174
N5605 X5.2697 Y0.0115
N5610 X5.269 Y0.0055
N5615 X5.2687 Y-0.0005
N5620 Y-0.0065
N5625 X5.2691 Y-0.0125
N5630 X5.2698 Y-0.0184
N5635 X5.2709 Y-0.0243
N5640 X5.2759 Y-0.0389
N5645 X5.2836 Y-0.0523
N5650 X5.2937 Y-0.064
N5655 X5.3058 Y-0.0736
N5660 X5.3195 Y-0.0807
N5665 X5.3343 Y-0.085
N5670 X5.3497 Y-0.0865
N5675 X5.3704
N5680 G3 X5.3799 Y-0.0843 I-0.0009 J0.025 F30.
N5685 X5.3936 Y-0.0548 I-0.0104 J0.0227 F135.
N5690 G1 X5.3593 Y0.0682
N5695 G3 X5.3456 Y0.0843 I-0.0241 J-0.0067
N5700 X5.3361 Y0.0865 I-0.0104 J-0.0227 F30.
N5705 G1 X5.318 F45.5
N5710 X5.312 Y0.0862
N5715 X5.3061 Y0.085
N5720 X5.3005 Y0.0831
N5725 X5.2951 Y0.0805
N5730 X5.2899 Y0.0774
N5735 X5.2851 Y0.0739
N5740 X5.2805 Y0.07
N5745 X5.2762 Y0.0658
N5750 X5.2723 Y0.0612
N5755 X5.2686 Y0.0565
N5760 X5.2653 Y0.0515
N5765 X5.2623 Y0.0463
N5770 X5.2596 Y0.041
N5775 X5.2572 Y0.0355
N5780 X5.2551 Y0.0298
N5785 X5.2533 Y0.0241
N5790 X5.2519 Y0.0183
N5795 X5.2508 Y0.0124
N5800 X5.25 Y0.0064
N5805 X5.2496 Y0.0004
N5810 X5.2495 Y-0.0056
N5815 X5.2498 Y-0.0116
N5820 X5.2504 Y-0.0175
N5825 X5.254 Y-0.0315
N5830 X5.2599 Y-0.0447
N5835 X5.2681 Y-0.0566
N5840 X5.2782 Y-0.0669
N5845 X5.29 Y-0.0753
N5850 X5.303 Y-0.0814
N5855 X5.317 Y-0.0852
N5860 X5.3314 Y-0.0865
N5865 X5.3497
N5870 G3 X5.3592 Y-0.0843 I-0.0009 J0.025 F30.
N5875 X5.3731 Y-0.0553 I-0.0104 J0.0227 F135.
N5880 G1 X5.3414 Y0.0677
N5885 G3 X5.3275 Y0.0843 I-0.0242 J-0.0062
N5890 X5.318 Y0.0865 I-0.0104 J-0.0227 F30.
N5895 G1 X5.2988 F45.5
N5900 X5.2928 Y0.0862
N5905 X5.2869 Y0.085
N5910 X5.2812 Y0.083
N5915 X5.2758 Y0.0804
N5920 X5.2707 Y0.0773
N5925 X5.2659 Y0.0738
N5930 X5.2613 Y0.0699
N5935 X5.2571 Y0.0656
N5940 X5.2531 Y0.0611
N5945 X5.2495 Y0.0563
N5950 X5.2461 Y0.0513
N5955 X5.2431 Y0.0462
N5960 X5.2404 Y0.0408
N5965 X5.238 Y0.0353
N5970 X5.2359 Y0.0297
N5975 X5.2342 Y0.024
N5980 X5.2327 Y0.0181
N5985 X5.2316 Y0.0122
N5990 X5.2309 Y0.0063
N5995 X5.2305 Y0.0003
N6000 Y-0.0057
N6005 X5.2307 Y-0.0117
N6010 X5.2314 Y-0.0177
N6015 X5.2351 Y-0.0317
N6020 X5.2412 Y-0.0448
N6025 X5.2494 Y-0.0567
N6030 X5.2597 Y-0.067
N6035 X5.2715 Y-0.0753
N6040 X5.2847 Y-0.0815
N6045 X5.2986 Y-0.0852
N6050 X5.3131 Y-0.0865
N6055 X5.3314
N6060 G3 X5.3409 Y-0.0843 I-0.0009 J0.025 F30.
N6065 X5.3547 Y-0.0551 I-0.0104 J0.0227 F135.
N6070 G1 X5.3221 Y0.0679
N6075 G3 X5.3083 Y0.0843 I-0.0242 J-0.0064
N6080 X5.2988 Y0.0865 I-0.0104 J-0.0227 F30.
N6085 G1 X5.2796 F45.5
N6090 X5.2736 Y0.0862
N6095 X5.2678 Y0.085
N6100 X5.2621 Y0.083
N6105 X5.2567 Y0.0804
N6110 X5.2516 Y0.0773
N6115 X5.2467 Y0.0737
N6120 X5.2422 Y0.0698
N6125 X5.2379 Y0.0656
N6130 X5.234 Y0.0611
N6135 X5.2303 Y0.0563
N6140 X5.227 Y0.0513
N6145 X5.224 Y0.0461
N6150 X5.2213 Y0.0408
N6155 X5.2189 Y0.0353
N6160 X5.2168 Y0.0296
N6165 X5.2151 Y0.0239
N6170 X5.2136 Y0.0181
N6175 X5.2126 Y0.0122
N6180 X5.2118 Y0.0062
N6185 X5.2114 Y0.0002
N6190 Y-0.0058
N6195 X5.2117 Y-0.0118
N6200 X5.2124 Y-0.0177
N6205 X5.2134 Y-0.0236
N6210 X5.2184 Y-0.0384
N6215 X5.2261 Y-0.0519
N6220 X5.2362 Y-0.0637
N6225 X5.2484 Y-0.0734
N6230 X5.2622 Y-0.0806
N6235 X5.2771 Y-0.085
N6240 X5.2926 Y-0.0865
N6245 X5.3131
N6250 G3 X5.3226 Y-0.0843 I-0.0009 J0.025 F30.
N6255 X5.3363 Y-0.0549 I-0.0104 J0.0227 F135.
N6260 G1 X5.3029 Y0.0681
N6265 G3 X5.2891 Y0.0843 I-0.0241 J-0.0066
N6270 X5.2796 Y0.0865 I-0.0104 J-0.0227 F30.
N6275 G1 X5.2609 F45.5
N6280 X5.2549 Y0.0862
N6285 X5.249 Y0.085
N6290 X5.2434 Y0.0831
N6295 X5.2379 Y0.0805
N6300 X5.2328 Y0.0775
N6305 X5.2279 Y0.0739
N6310 X5.2234 Y0.0701
N6315 X5.2191 Y0.0658
N6320 X5.2151 Y0.0613
N6325 X5.2115 Y0.0566
N6330 X5.2081 Y0.0516
N6335 X5.2051 Y0.0464
N6340 X5.2024 Y0.0411
N6345 X5.2 Y0.0356
N6350 X5.1979 Y0.03
N6355 X5.1961 Y0.0242
N6360 X5.1947 Y0.0184
N6365 X5.1935 Y0.0125
N6370 X5.1928 Y0.0066
N6375 X5.1924 Y0.0006
N6380 X5.1923 Y-0.0054
N6385 X5.1925 Y-0.0114
N6390 X5.1932 Y-0.0177
N6395 X5.1967 Y-0.0317
N6400 X5.2026 Y-0.0448
N6405 X5.2108 Y-0.0567
N6410 X5.2208 Y-0.067
N6415 X5.2326 Y-0.0753
N6420 X5.2456 Y-0.0815
N6425 X5.2595 Y-0.0852
N6430 X5.2738 Y-0.0865
N6435 X5.2926
N6440 G3 X5.3021 Y-0.0843 I-0.0009 J0.025 F30.
N6445 X5.316 Y-0.0553 I-0.0104 J0.0227 F135.
N6450 G1 X5.2843 Y0.0677
N6455 G3 X5.2704 Y0.0843 I-0.0242 J-0.0062
N6460 X5.2609 Y0.0865 I-0.0104 J-0.0227 F30.
N6465 G1 X5.2422 F45.5
N6470 X5.2362 Y0.0862
N6475 X5.2303 Y0.0851
N6480 X5.2246 Y0.0832
N6485 X5.2192 Y0.0807
N6490 X5.214 Y0.0776
N6495 X5.2092 Y0.0742
N6500 X5.2046 Y0.0703
N6505 X5.2003 Y0.0661
N6510 X5.1963 Y0.0616
N6515 X5.1926 Y0.0569
N6520 X5.1892 Y0.0519
N6525 X5.1862 Y0.0467
N6530 X5.1834 Y0.0414
N6535 X5.181 Y0.0359
N6540 X5.1789 Y0.0303
N6545 X5.1771 Y0.0246
N6550 X5.1756 Y0.0188
N6555 X5.1745 Y0.0129
N6560 X5.1737 Y0.0069
N6565 X5.1733 Y0.0009
N6570 X5.1732 Y-0.0051
N6575 X5.1734 Y-0.0111
N6580 X5.174 Y-0.017
N6585 X5.1776 Y-0.0311
N6590 X5.1837 Y-0.0444
N6595 X5.1919 Y-0.0564
N6600 X5.2022 Y-0.0668
N6605 X5.2141 Y-0.0752
N6610 X5.2272 Y-0.0814
N6615 X5.2413 Y-0.0852
N6620 X5.2558 Y-0.0865
N6625 X5.2738
N6630 G3 X5.2833 Y-0.0843 I-0.0009 J0.025 F30.
N6635 X5.2972 Y-0.0553 I-0.0104 J0.0227 F135.
N6640 G1 X5.2656 Y0.0677
N6645 G3 X5.2517 Y0.0843 I-0.0242 J-0.0062
N6650 X5.2422 Y0.0865 I-0.0104 J-0.0227 F30.
N6655 G1 X5.2225 F45.5
N6660 X5.2165 Y0.0862
N6665 X5.2107 Y0.085
N6670 X5.205 Y0.083
N6675 X5.1996 Y0.0804
N6680 X5.1944 Y0.0773
N6685 X5.1896 Y0.0738
N6690 X5.185 Y0.0699
N6695 X5.1808 Y0.0657
N6700 X5.1768 Y0.0612
N6705 X5.1732 Y0.0564
N6710 X5.1698 Y0.0514
N6715 X5.1668 Y0.0462
N6720 X5.1641 Y0.0409
N6725 X5.1617 Y0.0354
N6730 X5.1596 Y0.0298
N6735 X5.1578 Y0.024
N6740 X5.1564 Y0.0182
N6745 X5.1553 Y0.0123
N6750 X5.1546 Y0.0063
N6755 X5.1542 Y0.0004
N6760 Y-0.0056
N6765 X5.1545 Y-0.0116
N6770 X5.1551 Y-0.0176
N6775 X5.1589 Y-0.0316
N6780 X5.165 Y-0.0448
N6785 X5.1733 Y-0.0567
N6790 X5.1836 Y-0.067
N6795 X5.1955 Y-0.0753
N6800 X5.2087 Y-0.0815
N6805 X5.2227 Y-0.0852
N6810 X5.2372 Y-0.0865
N6815 X5.2558
N6820 G3 X5.2653 Y-0.0843 I-0.0009 J0.025 F30.
N6825 X5.2791 Y-0.055 I-0.0104 J0.0227 F135.
N6830 G1 X5.2458 Y0.068
N6835 G3 X5.232 Y0.0843 I-0.0241 J-0.0065
N6840 X5.2225 Y0.0865 I-0.0104 J-0.0227 F30.
N6845 G1 X5.203 F45.5
N6850 X5.197 Y0.0862
N6855 X5.1911 Y0.0849
N6860 X5.1855 Y0.0829
N6865 X5.1801 Y0.0803
N6870 X5.175 Y0.0771
N6875 X5.1702 Y0.0736
N6880 X5.1656 Y0.0696
N6885 X5.1614 Y0.0654
N6890 X5.1575 Y0.0609
N6895 X5.1538 Y0.0561
N6900 X5.1505 Y0.0511
N6905 X5.1475 Y0.0459
N6910 X5.1448 Y0.0405
N6915 X5.1425 Y0.035
N6920 X5.1404 Y0.0294
N6925 X5.1387 Y0.0236
N6930 X5.1373 Y0.0178
N6935 X5.1362 Y0.0119
N6940 X5.1355 Y0.0059
N6945 X5.1352 Y-0.0001
N6950 Y-0.0061
N6955 X5.1355 Y-0.0121
N6960 X5.1362 Y-0.018
N6965 X5.1373 Y-0.0239
N6970 X5.1423 Y-0.0386
N6975 X5.15 Y-0.0521
N6980 X5.1602 Y-0.0639
N6985 X5.1723 Y-0.0735
N6990 X5.1861 Y-0.0806
N6995 X5.201 Y-0.085
N7000 X5.2165 Y-0.0865
N7005 X5.2372
N7010 G3 X5.2467 Y-0.0843 I-0.0009 J0.025 F30.
N7015 X5.2604 Y-0.0548 I-0.0104 J0.0227 F135.
N7020 G1 X5.2262 Y0.0682
N7025 G3 X5.2125 Y0.0843 I-0.0241 J-0.0067
N7030 X5.203 Y0.0865 I-0.0104 J-0.0227 F30.
N7035 G1 X5.184 F45.5
N7040 X5.178 Y0.0862
N7045 X5.1721 Y0.0849
N7050 X5.1665 Y0.0829
N7055 X5.1611 Y0.0803
N7060 X5.156 Y0.0772
N7065 X5.1511 Y0.0736
N7070 X5.1466 Y0.0697
N7075 X5.1424 Y0.0655
N7080 X5.1384 Y0.0609
N7085 X5.1348 Y0.0561
N7090 X5.1315 Y0.0511
N7095 X5.1285 Y0.0459
N7100 X5.1258 Y0.0406
N7105 X5.1234 Y0.0351
N7110 X5.1214 Y0.0294
N7115 X5.1197 Y0.0237
N7120 X5.1183 Y0.0178
N7125 X5.1172 Y0.0119
N7130 X5.1164 Y0.006
N7135 X5.1161 Y0.
N7140 X5.116 Y-0.006
N7145 X5.1163 Y-0.012
N7150 X5.117 Y-0.0179
N7155 X5.1206 Y-0.0319
N7160 X5.1266 Y-0.045
N7165 X5.1347 Y-0.0568
N7170 X5.1449 Y-0.067
N7175 X5.1566 Y-0.0754
N7180 X5.1696 Y-0.0815
N7185 X5.1835 Y-0.0852
N7190 X5.1979 Y-0.0865
N7195 X5.2165
N7200 G3 X5.226 Y-0.0843 I-0.0009 J0.025 F30.
N7205 X5.2398 Y-0.0551 I-0.0104 J0.0227 F135.
N7210 G1 X5.2073 Y0.0679
N7215 G3 X5.1935 Y0.0843 I-0.0242 J-0.0064
N7220 X5.184 Y0.0865 I-0.0104 J-0.0227 F30.
N7225 G1 X5.1657 F45.5
N7230 X5.1597 Y0.0862
N7235 X5.1538 Y0.0851
N7240 X5.1481 Y0.0832
N7245 X5.1427 Y0.0806
N7250 X5.1375 Y0.0775
N7255 X5.1327 Y0.074
N7260 X5.1281 Y0.0702
N7265 X5.1238 Y0.0659
N7270 X5.1198 Y0.0614
N7275 X5.1162 Y0.0567
N7280 X5.1128 Y0.0517
N7285 X5.1098 Y0.0465
N7290 X5.1071 Y0.0412
N7295 X5.1046 Y0.0357
N7300 X5.1025 Y0.0301
N7305 X5.1008 Y0.0244
N7310 X5.0993 Y0.0185
N7315 X5.0982 Y0.0126
N7320 X5.0974 Y0.0067
N7325 X5.097 Y0.0007
N7330 X5.0969 Y-0.0053
N7335 X5.0972 Y-0.0113
N7340 X5.0978 Y-0.0173
N7345 X5.1015 Y-0.0313
N7350 X5.1075 Y-0.0446
N7355 X5.1158 Y-0.0565
N7360 X5.1261 Y-0.0669
N7365 X5.138 Y-0.0752
N7370 X5.1511 Y-0.0814
N7375 X5.1652 Y-0.0852
N7380 X5.1797 Y-0.0865
N7385 X5.1979
N7390 G3 X5.2074 Y-0.0843 I-0.0009 J0.025 F30.
N7395 X5.2212 Y-0.0552 I-0.0104 J0.0227 F135.
N7400 G1 X5.189 Y0.0678
N7405 G3 X5.1752 Y0.0843 I-0.0242 J-0.0063
N7410 X5.1657 Y0.0865 I-0.0104 J-0.0227 F30.
N7415 G1 X5.1465 F45.5
N7420 X5.1405 Y0.0862
N7425 X5.1346 Y0.0851
N7430 X5.129 Y0.0831
N7435 X5.1235 Y0.0806
N7440 X5.1184 Y0.0775
N7445 X5.1135 Y0.074
N7450 X5.109 Y0.0701
N7455 X5.1047 Y0.0659
N7460 X5.1007 Y0.0614
N7465 X5.0971 Y0.0566
N7470 X5.0937 Y0.0516
N7475 X5.0907 Y0.0465
N7480 X5.0879 Y0.0411
N7485 X5.0855 Y0.0356
N7490 X5.0834 Y0.03
N7495 X5.0817 Y0.0243
N7500 X5.0802 Y0.0185
N7505 X5.0791 Y0.0126
N7510 X5.0784 Y0.0066
N7515 X5.078 Y0.0006
N7520 X5.0779 Y-0.0054
N7525 X5.0782 Y-0.0114
N7530 X5.0789 Y-0.0173
N7535 X5.0799 Y-0.0233
N7540 X5.0848 Y-0.0381
N7545 X5.0925 Y-0.0517
N7550 X5.1027 Y-0.0636
N7555 X5.1149 Y-0.0733
N7560 X5.1287 Y-0.0805
N7565 X5.1437 Y-0.085
N7570 X5.1593 Y-0.0865
N7575 X5.1797
N7580 G3 X5.1892 Y-0.0843 I-0.0009 J0.025 F30.
N7585 X5.2029 Y-0.055 I-0.0104 J0.0227 F135.
N7590 G1 X5.1698 Y0.068
N7595 G3 X5.156 Y0.0843 I-0.0241 J-0.0065
N7600 X5.1465 Y0.0865 I-0.0104 J-0.0227 F30.
N7605 G1 X5.1267 F45.5
N7610 X5.1207 Y0.0862
N7615 X5.1148 Y0.0849
N7620 X5.1092 Y0.0829
N7625 X5.1038 Y0.0803
N7630 X5.0987 Y0.0771
N7635 X5.0939 Y0.0736
N7640 X5.0893 Y0.0696
N7645 X5.0851 Y0.0654
N7650 X5.0812 Y0.0608
N7655 X5.0776 Y0.0561
N7660 X5.0742 Y0.051
N7665 X5.0712 Y0.0459
N7670 X5.0686 Y0.0405
N7675 X5.0662 Y0.035
N7680 X5.0641 Y0.0293
N7685 X5.0624 Y0.0236
N7690 X5.061 Y0.0178
N7695 X5.0599 Y0.0119
N7700 X5.0592 Y0.0059
N7705 X5.0588 Y-0.0001
N7710 Y-0.0061
N7715 X5.0591 Y-0.0121
N7720 X5.0598 Y-0.018
N7725 X5.0634 Y-0.032
N7730 X5.0693 Y-0.045
N7735 X5.0775 Y-0.0569
N7740 X5.0876 Y-0.0671
N7745 X5.0994 Y-0.0754
N7750 X5.1124 Y-0.0815
N7755 X5.1263 Y-0.0852
N7760 X5.1406 Y-0.0865
N7765 X5.1593
N7770 G3 X5.1688 Y-0.0843 I-0.0009 J0.025 F30.
N7775 X5.1826 Y-0.0551 I-0.0104 J0.0227 F135.
N7780 G1 X5.15 Y0.0679
N7785 G3 X5.1362 Y0.0843 I-0.0242 J-0.0064
N7790 X5.1267 Y0.0865 I-0.0104 J-0.0227 F30.
N7795 G1 X5.1075 F45.5
N7800 X5.1015 Y0.0862
N7805 X5.0956 Y0.0849
N7810 X5.09 Y0.0829
N7815 X5.0846 Y0.0802
N7820 X5.0795 Y0.0771
N7825 X5.0747 Y0.0735
N7830 X5.0701 Y0.0695
N7835 X5.0659 Y0.0653
N7840 X5.062 Y0.0607
N7845 X5.0584 Y0.0559
N7850 X5.0551 Y0.0509
N7855 X5.0521 Y0.0457
N7860 X5.0494 Y0.0404
N7865 X5.047 Y0.0348
N7870 X5.045 Y0.0292
N7875 X5.0433 Y0.0235
N7880 X5.0418 Y0.0176
N7885 X5.0408 Y0.0117
N7890 X5.0401 Y0.0058
N7895 X5.0397 Y-0.0002
N7900 Y-0.0062
N7905 X5.04 Y-0.0122
N7910 X5.0407 Y-0.0182
N7915 X5.0444 Y-0.0321
N7920 X5.0506 Y-0.0452
N7925 X5.0588 Y-0.057
N7930 X5.069 Y-0.0672
N7935 X5.0808 Y-0.0754
N7940 X5.0939 Y-0.0815
N7945 X5.1078 Y-0.0852
N7950 X5.1222 Y-0.0865
N7955 X5.1406
N7960 G3 X5.1501 Y-0.0843 I-0.0009 J0.025 F30.
N7965 X5.1638 Y-0.055 I-0.0104 J0.0227 F135.
N7970 G1 X5.1307 Y0.068
N7975 G3 X5.1169 Y0.0843 I-0.0241 J-0.0065
N7980 X5.1075 Y0.0865 I-0.0104 J-0.0227 F30.
N7985 G1 X5.0894 F45.5
N7990 X5.0834 Y0.0862
N7995 X5.0775 Y0.0851
N8000 X5.0719 Y0.0832
N8005 X5.0664 Y0.0806
N8010 X5.0613 Y0.0776
N8015 X5.0564 Y0.0741
N8020 X5.0518 Y0.0702
N8025 X5.0475 Y0.066
N8030 X5.0436 Y0.0615
N8035 X5.0399 Y0.0567
N8040 X5.0365 Y0.0518
N8045 X5.0335 Y0.0466
N8050 X5.0308 Y0.0412
N8055 X5.0283 Y0.0358
N8060 X5.0262 Y0.0301
N8065 X5.0245 Y0.0244
N8070 X5.023 Y0.0186
N8075 X5.0219 Y0.0127
N8080 X5.0211 Y0.0067
N8085 X5.0207 Y0.0008
N8090 X5.0206 Y-0.0052
N8095 X5.0209 Y-0.0112
N8100 X5.0216 Y-0.0172
N8105 X5.0226 Y-0.0231
N8110 X5.0275 Y-0.038
N8115 X5.0352 Y-0.0516
N8120 X5.0453 Y-0.0635
N8125 X5.0576 Y-0.0733
N8130 X5.0714 Y-0.0805
N8135 X5.0864 Y-0.085
N8140 X5.102 Y-0.0865
N8145 X5.1222
N8150 G3 X5.1317 Y-0.0843 I-0.0009 J0.025 F30.
N8155 X5.1455 Y-0.0551 I-0.0104 J0.0227 F135.
N8160 G1 X5.1127 Y0.0679
N8165 G3 X5.0989 Y0.0843 I-0.0242 J-0.0064
N8170 X5.0894 Y0.0865 I-0.0104 J-0.0227 F30.
N8175 G1 X5.0696 F45.5
N8180 X5.0636 Y0.0862
N8185 X5.0577 Y0.085
N8190 X5.0521 Y0.0829
N8195 X5.0467 Y0.0803
N8200 X5.0416 Y0.0772
N8205 X5.0367 Y0.0736
N8210 X5.0322 Y0.0697
N8215 X5.028 Y0.0655
N8220 X5.024 Y0.0609
N8225 X5.0204 Y0.0562
N8230 X5.0171 Y0.0512
N8235 X5.0141 Y0.046
N8240 X5.0114 Y0.0406
N8245 X5.009 Y0.0351
N8250 X5.0069 Y0.0295
N8255 X5.0052 Y0.0237
N8260 X5.0038 Y0.0179
N8265 X5.0027 Y0.012
N8270 X5.002 Y0.006
N8275 X5.0016 Y0.
N8280 X5.0015 Y-0.006
N8285 X5.0018 Y-0.0119
N8290 X5.0025 Y-0.0179
N8295 X5.0026 Y-0.0187
N8300 X5.0062 Y-0.0325
N8305 X5.0121 Y-0.0454
N8310 X5.0201 Y-0.0571
N8315 X5.0301 Y-0.0673
N8320 X5.0417 Y-0.0755
N8325 X5.0546 Y-0.0815
N8330 X5.0683 Y-0.0852
N8335 X5.0825 Y-0.0865
N8340 X5.102
N8345 G3 X5.1115 Y-0.0843 I-0.0009 J0.025 F30.
N8350 X5.1253 Y-0.0551 I-0.0104 J0.0227 F135.
N8355 G1 X5.0929 Y0.0679
N8360 G3 X5.0791 Y0.0843 I-0.0242 J-0.0064
N8365 X5.0696 Y0.0865 I-0.0104 J-0.0227 F30.
N8370 G1 X5.0509 F45.5
N8375 X5.0449 Y0.0862
N8380 X5.039 Y0.085
N8385 X5.0334 Y0.0831
N8390 X5.0279 Y0.0805
N8395 X5.0228 Y0.0774
N8400 X5.018 Y0.0738
N8405 X5.0134 Y0.0699
N8410 X5.0091 Y0.0657
N8415 X5.0052 Y0.0612
N8420 X5.0015 Y0.0564
N8425 X4.9982 Y0.0515
N8430 X4.9952 Y0.0463
N8435 X4.9924 Y0.0409
N8440 X4.99 Y0.0354
N8445 X4.9879 Y0.0298
N8450 X4.9862 Y0.0241
N8455 X4.9847 Y0.0183
N8460 X4.9836 Y0.0124
N8465 X4.9829 Y0.0064
N8470 X4.9824 Y0.0004
N8475 Y-0.0056
N8480 X4.9826 Y-0.0116
N8485 X4.9832 Y-0.0175
N8490 X4.9869 Y-0.0316
N8495 X4.9929 Y-0.0447
N8500 X5.0011 Y-0.0566
N8505 X5.0113 Y-0.0669
N8510 X5.0231 Y-0.0753
N8515 X5.0362 Y-0.0814
N8520 X5.0502 Y-0.0852
N8525 X5.0646 Y-0.0865
N8530 X5.0825
N8535 G3 X5.092 Y-0.0843 I-0.0009 J0.025 F30.
N8540 X5.1058 Y-0.0553 I-0.0104 J0.0227 F135.
N8545 G1 X5.0742 Y0.0677
N8550 G3 X5.0604 Y0.0843 I-0.0242 J-0.0062
N8555 X5.0509 Y0.0865 I-0.0104 J-0.0227 F30.
N8560 G1 X5.0312 F45.5
N8565 X5.0252 Y0.0862
N8570 X5.0193 Y0.0849
N8575 X5.0137 Y0.0829
N8580 X5.0083 Y0.0802
N8585 X5.0032 Y0.0771
N8590 X4.9984 Y0.0735
N8595 X4.9939 Y0.0696
N8600 X4.9896 Y0.0653
N8605 X4.9857 Y0.0608
N8610 X4.9821 Y0.056
N8615 X4.9788 Y0.051
N8620 X4.9758 Y0.0458
N8625 X4.9731 Y0.0404
N8630 X4.9707 Y0.0349
N8635 X4.9687 Y0.0293
N8640 X4.9669 Y0.0235
N8645 X4.9655 Y0.0177
N8650 X4.9644 Y0.0118
N8655 X4.9637 Y0.0058
N8660 X4.9633 Y-0.0001
N8665 Y-0.0061
N8670 X4.9637 Y-0.0121
N8675 X4.9643 Y-0.0181
N8680 X4.9681 Y-0.032
N8685 X4.9742 Y-0.0451
N8690 X4.9825 Y-0.0569
N8695 X4.9928 Y-0.0671
N8700 X5.0046 Y-0.0754
N8705 X5.0177 Y-0.0815
N8710 X5.0317 Y-0.0852
N8715 X5.046 Y-0.0865
N8720 X5.0646
N8725 G3 X5.0741 Y-0.0843 I-0.0009 J0.025 F30.
N8730 X5.0879 Y-0.0549 I-0.0104 J0.0227 F135.
N8735 G1 X5.0545 Y0.0681
N8740 G3 X5.0407 Y0.0843 I-0.0241 J-0.0066
N8745 X5.0312 Y0.0865 I-0.0104 J-0.0227 F30.
N8750 G1 X5.0117 F45.5
N8755 X5.0057 Y0.0862
N8760 X4.9998 Y0.0848
N8765 X4.9942 Y0.0828
N8770 X4.9888 Y0.0801
N8775 X4.9838 Y0.0769
N8780 X4.979 Y0.0733
N8785 X4.9745 Y0.0693
N8790 X4.9702 Y0.065
N8795 X4.9663 Y0.0605
N8800 X4.9627 Y0.0557
N8805 X4.9595 Y0.0507
N8810 X4.9565 Y0.0455
N8815 X4.9538 Y0.0401
N8820 X4.9515 Y0.0346
N8825 X4.9494 Y0.0289
N8830 X4.9477 Y0.0232
N8835 X4.9463 Y0.0173
N8840 X4.9453 Y0.0114
N8845 X4.9446 Y0.0055
N8850 X4.9443 Y-0.0005
N8855 Y-0.0065
N8860 X4.9447 Y-0.0125
N8865 X4.9454 Y-0.0185
N8870 X4.9465 Y-0.0244
N8875 X4.9515 Y-0.039
N8880 X4.9592 Y-0.0524
N8885 X4.9693 Y-0.064
N8890 X4.9814 Y-0.0736
N8895 X4.9952 Y-0.0807
N8900 X5.01 Y-0.085
N8905 X5.0253 Y-0.0865
N8910 X5.046
N8915 G3 X5.0555 Y-0.0843 I-0.0009 J0.025 F30.
N8920 X5.0692 Y-0.0548 I-0.0104 J0.0227 F135.
N8925 G1 X5.0349 Y0.0682
N8930 G3 X5.0212 Y0.0843 I-0.0241 J-0.0067
N8935 X5.0117 Y0.0865 I-0.0104 J-0.0227 F30.
N8940 G1 X4.9936 F45.5
N8945 X4.9876 Y0.0862
N8950 X4.9817 Y0.085
N8955 X4.9761 Y0.0831
N8960 X4.9706 Y0.0805
N8965 X4.9655 Y0.0774
N8970 X4.9606 Y0.0739
N8975 X4.9561 Y0.07
N8980 X4.9518 Y0.0657
N8985 X4.9479 Y0.0612
N8990 X4.9442 Y0.0565
N8995 X4.9409 Y0.0515
N9000 X4.9379 Y0.0463
N9005 X4.9351 Y0.0409
N9010 X4.9328 Y0.0354
N9015 X4.9307 Y0.0298
N9020 X4.9289 Y0.0241
N9025 X4.9275 Y0.0182
N9030 X4.9264 Y0.0123
N9035 X4.9256 Y0.0064
N9040 X4.9252 Y0.0004
N9045 X4.9251 Y-0.0056
N9050 X4.9254 Y-0.0116
N9055 X4.926 Y-0.0175
N9060 X4.9296 Y-0.0315
N9065 X4.9355 Y-0.0447
N9070 X4.9437 Y-0.0566
N9075 X4.9538 Y-0.0669
N9080 X4.9656 Y-0.0753
N9085 X4.9786 Y-0.0814
N9090 X4.9926 Y-0.0852
N9095 X5.007 Y-0.0865
N9100 X5.0253
N9105 G3 X5.0348 Y-0.0843 I-0.0009 J0.025 F30.
N9110 X5.0487 Y-0.0553 I-0.0104 J0.0227 F135.
N9115 G1 X5.0169 Y0.0677
N9120 G3 X5.0031 Y0.0843 I-0.0242 J-0.0062
N9125 X4.9936 Y0.0865 I-0.0104 J-0.0227 F30.
N9130 G1 X4.9744 F45.5
N9135 X4.9684 Y0.0862
N9140 X4.9625 Y0.085
N9145 X4.9568 Y0.083
N9150 X4.9514 Y0.0804
N9155 X4.9463 Y0.0773
N9160 X4.9414 Y0.0738
N9165 X4.9369 Y0.0698
N9170 X4.9326 Y0.0656
N9175 X4.9287 Y0.0611
N9180 X4.9251 Y0.0563
N9185 X4.9217 Y0.0513
N9190 X4.9187 Y0.0461
N9195 X4.916 Y0.0408
N9200 X4.9136 Y0.0353
N9205 X4.9115 Y0.0297
N9210 X4.9097 Y0.0239
N9215 X4.9083 Y0.0181
N9220 X4.9072 Y0.0122
N9225 X4.9065 Y0.0062
N9230 X4.9061 Y0.0003
N9235 Y-0.0057
N9240 X4.9063 Y-0.0117
N9245 X4.907 Y-0.0177
N9250 X4.9107 Y-0.0317
N9255 X4.9168 Y-0.0449
N9260 X4.9251 Y-0.0567
N9265 X4.9353 Y-0.067
N9270 X4.9471 Y-0.0753
N9275 X4.9603 Y-0.0815
N9280 X4.9743 Y-0.0852
N9285 X4.9887 Y-0.0865
N9290 X5.007
N9295 G3 X5.0165 Y-0.0843 I-0.0009 J0.025 F30.
N9300 X5.0303 Y-0.0551 I-0.0104 J0.0227 F135.
N9305 G1 X4.9976 Y0.0679
N9310 G3 X4.9838 Y0.0843 I-0.0242 J-0.0064
N9315 X4.9744 Y0.0865 I-0.0104 J-0.0227 F30.
N9320 G1 X4.9552 F45.5
N9325 X4.9492 Y0.0862
N9330 X4.9433 Y0.085
N9335 X4.9377 Y0.083
N9340 X4.9323 Y0.0804
N9345 X4.9271 Y0.0773
N9350 X4.9223 Y0.0737
N9355 X4.9178 Y0.0698
N9360 X4.9135 Y0.0656
N9365 X4.9096 Y0.061
N9370 X4.9059 Y0.0563
N9375 X4.9026 Y0.0513
N9380 X4.8996 Y0.0461
N9385 X4.8969 Y0.0407
N9390 X4.8945 Y0.0352
N9395 X4.8924 Y0.0296
N9400 X4.8906 Y0.0239
N9405 X4.8892 Y0.018
N9410 X4.8882 Y0.0121
N9415 X4.8874 Y0.0062
N9420 X4.887 Y0.0002
N9425 Y-0.0058
N9430 X4.8873 Y-0.0118
N9435 X4.888 Y-0.0178
N9440 X4.8891 Y-0.0237
N9445 X4.894 Y-0.0384
N9450 X4.9017 Y-0.0519
N9455 X4.9118 Y-0.0637
N9460 X4.924 Y-0.0734
N9465 X4.9378 Y-0.0806
N9470 X4.9527 Y-0.085
N9475 X4.9682 Y-0.0865
N9480 X4.9887
N9485 G3 X4.9982 Y-0.0843 I-0.0009 J0.025 F30.
N9490 X5.0119 Y-0.0549 I-0.0104 J0.0227 F135.
N9495 G1 X4.9785 Y0.0681
N9500 G3 X4.9647 Y0.0843 I-0.0241 J-0.0066
N9505 X4.9552 Y0.0865 I-0.0104 J-0.0227 F30.
N9510 G1 X4.9365 F45.5
N9515 X4.9305 Y0.0862
N9520 X4.9246 Y0.085
N9525 X4.9189 Y0.0831
N9530 X4.9135 Y0.0805
N9535 X4.9084 Y0.0774
N9540 X4.9035 Y0.0739
N9545 X4.8989 Y0.07
N9550 X4.8947 Y0.0658
N9555 X4.8907 Y0.0613
N9560 X4.8871 Y0.0566
N9565 X4.8837 Y0.0516
N9570 X4.8807 Y0.0464
N9575 X4.878 Y0.0411
N9580 X4.8755 Y0.0356
N9585 X4.8735 Y0.0299
N9590 X4.8717 Y0.0242
N9595 X4.8702 Y0.0184
N9600 X4.8691 Y0.0125
N9605 X4.8684 Y0.0065
N9610 X4.868 Y0.0006
N9615 X4.8679 Y-0.0054
N9620 X4.8681 Y-0.0114
N9625 X4.8688 Y-0.0178
N9630 X4.8723 Y-0.0317
N9635 X4.8782 Y-0.0448
N9640 X4.8864 Y-0.0567
N9645 X4.8964 Y-0.067
N9650 X4.9082 Y-0.0753
N9655 X4.9212 Y-0.0815
N9660 X4.9351 Y-0.0852
N9665 X4.9494 Y-0.0865
N9670 X4.9682
N9675 G3 X4.9777 Y-0.0843 I-0.0009 J0.025 F30.
N9680 X4.9916 Y-0.0553 I-0.0104 J0.0227 F135.
N9685 G1 X4.9598 Y0.0677
N9690 G3 X4.946 Y0.0843 I-0.0242 J-0.0062
N9695 X4.9365 Y0.0865 I-0.0104 J-0.0227 F30.
N9700 G1 X4.9178 F45.5
N9705 X4.9118 Y0.0862
N9710 X4.9059 Y0.0851
N9715 X4.9002 Y0.0832
N9720 X4.8948 Y0.0807
N9725 X4.8896 Y0.0776
N9730 X4.8847 Y0.0741
N9735 X4.8801 Y0.0703
N9740 X4.8759 Y0.0661
N9745 X4.8719 Y0.0616
N9750 X4.8682 Y0.0568
N9755 X4.8648 Y0.0519
N9760 X4.8618 Y0.0467
N9765 X4.859 Y0.0414
N9770 X4.8566 Y0.0359
N9775 X4.8545 Y0.0303
N9780 X4.8527 Y0.0246
N9785 X4.8512 Y0.0187
N9790 X4.8501 Y0.0128
N9795 X4.8493 Y0.0069
N9800 X4.8488 Y0.0009
N9805 Y-0.0051
N9810 X4.849 Y-0.0111
N9815 X4.8496 Y-0.0171
N9820 X4.8532 Y-0.0312
N9825 X4.8593 Y-0.0444
N9830 X4.8675 Y-0.0564
N9835 X4.8778 Y-0.0668
N9840 X4.8896 Y-0.0752
N9845 X4.9028 Y-0.0814
N9850 X4.9169 Y-0.0852
N9855 X4.9314 Y-0.0865
N9860 X4.9494
N9865 G3 X4.9589 Y-0.0843 I-0.0009 J0.025 F30.
N9870 X4.9727 Y-0.0553 I-0.0104 J0.0227 F135.
N9875 G1 X4.9412 Y0.0677
N9880 G3 X4.9273 Y0.0843 I-0.0242 J-0.0062
N9885 X4.9178 Y0.0865 I-0.0104 J-0.0227 F30.
N9890 G1 X4.8981 F45.5
N9895 X4.8921 Y0.0862
N9900 X4.8862 Y0.085
N9905 X4.8806 Y0.083
N9910 X4.8752 Y0.0804
N9915 X4.87 Y0.0773
N9920 X4.8652 Y0.0738
N9925 X4.8606 Y0.0699
N9930 X4.8564 Y0.0657
N9935 X4.8524 Y0.0611
N9940 X4.8488 Y0.0564
N9945 X4.8454 Y0.0514
N9950 X4.8424 Y0.0462
N9955 X4.8397 Y0.0409
N9960 X4.8373 Y0.0354
N9965 X4.8352 Y0.0297
N9970 X4.8334 Y0.024
N9975 X4.832 Y0.0182
N9980 X4.8309 Y0.0123
N9985 X4.8302 Y0.0063
N9990 X4.8298 Y0.0003
N9995 Y-0.0057
N10000 X4.8301 Y-0.0117
N10005 X4.8307 Y-0.0176
N10010 X4.8345 Y-0.0317
N10015 X4.8406 Y-0.0448
N10020 X4.8489 Y-0.0567
N10025 X4.8592 Y-0.067
N10030 X4.8711 Y-0.0753
N10035 X4.8843 Y-0.0815
N10040 X4.8983 Y-0.0852
N10045 X4.9128 Y-0.0865
N10050 X4.9314
N10055 G3 X4.9409 Y-0.0843 I-0.0009 J0.025 F30.
N10060 X4.9547 Y-0.055 I-0.0104 J0.0227 F135.
N10065 G1 X4.9214 Y0.068
N10070 G3 X4.9076 Y0.0843 I-0.0241 J-0.0065
N10075 X4.8981 Y0.0865 I-0.0104 J-0.0227 F30.
N10080 G1 X4.8786 F45.5
N10085 X4.8726 Y0.0862
N10090 X4.8667 Y0.0849
N10095 X4.8611 Y0.0829
N10100 X4.8557 Y0.0803
N10105 X4.8506 Y0.0771
N10110 X4.8457 Y0.0736
N10115 X4.8412 Y0.0696
N10120 X4.837 Y0.0654
N10125 X4.833 Y0.0608
N10130 X4.8294 Y0.0561
N10135 X4.8261 Y0.0511
N10140 X4.8231 Y0.0459
N10145 X4.8204 Y0.0405
N10150 X4.8181 Y0.035
N10155 X4.816 Y0.0293
N10160 X4.8143 Y0.0236
N10165 X4.8129 Y0.0178
N10170 X4.8118 Y0.0119
N10175 X4.8111 Y0.0059
N10180 X4.8108 Y-0.0001
N10185 Y-0.0061
N10190 X4.8111 Y-0.0121
N10195 X4.8118 Y-0.018
N10200 X4.8129 Y-0.0239
N10205 X4.8179 Y-0.0386
N10210 X4.8256 Y-0.0521
N10215 X4.8358 Y-0.0639
N10220 X4.8479 Y-0.0735
N10225 X4.8617 Y-0.0806
N10230 X4.8766 Y-0.085
N10235 X4.8921 Y-0.0865
N10240 X4.9128
N10245 G3 X4.9223 Y-0.0843 I-0.0009 J0.025 F30.
N10250 X4.936 Y-0.0548 I-0.0104 J0.0227 F135.
N10255 G1 X4.9018 Y0.0682
N10260 G3 X4.8881 Y0.0843 I-0.0241 J-0.0067
N10265 X4.8786 Y0.0865 I-0.0104 J-0.0227 F30.
N10270 G1 X4.8596 F45.5
N10275 X4.8536 Y0.0862
N10280 X4.8477 Y0.0849
N10285 X4.8421 Y0.0829
N10290 X4.8367 Y0.0803
N10295 X4.8316 Y0.0772
N10300 X4.8267 Y0.0736
N10305 X4.8222 Y0.0697
N10310 X4.8179 Y0.0654
N10315 X4.814 Y0.0609
N10320 X4.8104 Y0.0561
N10325 X4.8071 Y0.0511
N10330 X4.8041 Y0.0459
N10335 X4.8014 Y0.0406
N10340 X4.799 Y0.035
N10345 X4.797 Y0.0294
N10350 X4.7953 Y0.0237
N10355 X4.7938 Y0.0178
N10360 X4.7928 Y0.0119
N10365 X4.792 Y0.006
N10370 X4.7917 Y0.
N10375 X4.7916 Y-0.006
N10380 X4.7919 Y-0.012
N10385 X4.7926 Y-0.018
N10390 X4.7962 Y-0.0319
N10395 X4.8022 Y-0.045
N10400 X4.8103 Y-0.0568
N10405 X4.8205 Y-0.0671
N10410 X4.8322 Y-0.0754
N10415 X4.8452 Y-0.0815
N10420 X4.8591 Y-0.0852
N10425 X4.8734 Y-0.0865
N10430 X4.8921
N10435 G3 X4.9016 Y-0.0843 I-0.0009 J0.025 F30.
N10440 X4.9154 Y-0.0551 I-0.0104 J0.0227 F135.
N10445 G1 X4.8829 Y0.0679
N10450 G3 X4.8691 Y0.0843 I-0.0242 J-0.0064
N10455 X4.8596 Y0.0865 I-0.0104 J-0.0227 F30.
N10460 G1 X4.8413 F45.5
N10465 X4.8353 Y0.0862
N10470 X4.8294 Y0.0851
N10475 X4.8237 Y0.0832
N10480 X4.8183 Y0.0806
N10485 X4.8131 Y0.0775
N10490 X4.8082 Y0.074
N10495 X4.8037 Y0.0701
N10500 X4.7994 Y0.0659
N10505 X4.7954 Y0.0614
N10510 X4.7918 Y0.0567
N10515 X4.7884 Y0.0517
N10520 X4.7854 Y0.0465
N10525 X4.7826 Y0.0412
N10530 X4.7802 Y0.0357
N10535 X4.7781 Y0.0301
N10540 X4.7763 Y0.0243
N10545 X4.7749 Y0.0185
N10550 X4.7738 Y0.0126
N10555 X4.773 Y0.0067
N10560 X4.7726 Y0.0007
N10565 X4.7725 Y-0.0053
N10570 X4.7728 Y-0.0113
N10575 X4.7734 Y-0.0173
N10580 X4.7771 Y-0.0314
N10585 X4.7831 Y-0.0446
N10590 X4.7914 Y-0.0565
N10595 X4.8017 Y-0.0669
N10600 X4.8135 Y-0.0752
N10605 X4.8267 Y-0.0814
N10610 X4.8408 Y-0.0852
N10615 X4.8552 Y-0.0865
N10620 X4.8734
N10625 G3 X4.8829 Y-0.0843 I-0.0009 J0.025 F30.
N10630 X4.8968 Y-0.0552 I-0.0104 J0.0227 F135.
N10635 G1 X4.8646 Y0.0678
N10640 G3 X4.8508 Y0.0843 I-0.0242 J-0.0063
N10645 X4.8413 Y0.0865 I-0.0104 J-0.0227 F30.
N10650 G1 X4.8221 F45.5
N10655 X4.8161 Y0.0862
N10660 X4.8102 Y0.0851
N10665 X4.8045 Y0.0831
N10670 X4.7991 Y0.0806
N10675 X4.794 Y0.0775
N10680 X4.7891 Y0.074
N10685 X4.7845 Y0.0701
N10690 X4.7803 Y0.0659
N10695 X4.7763 Y0.0614
N10700 X4.7726 Y0.0566
N10705 X4.7693 Y0.0516
N10710 X4.7662 Y0.0464
N10715 X4.7635 Y0.0411
N10720 X4.7611 Y0.0356
N10725 X4.759 Y0.03
N10730 X4.7572 Y0.0243
N10735 X4.7558 Y0.0184
N10740 X4.7547 Y0.0125
N10745 X4.754 Y0.0066
N10750 X4.7535 Y0.0006
N10755 Y-0.0054
N10760 X4.7538 Y-0.0114
N10765 X4.7545 Y-0.0174
N10770 X4.7555 Y-0.0233
N10775 X4.7604 Y-0.0381
N10780 X4.7681 Y-0.0517
N10785 X4.7782 Y-0.0636
N10790 X4.7905 Y-0.0733
N10795 X4.8043 Y-0.0805
N10800 X4.8193 Y-0.085
N10805 X4.8349 Y-0.0865
N10810 X4.8552
N10815 G3 X4.8647 Y-0.0843 I-0.0009 J0.025 F30.
N10820 X4.8785 Y-0.055 I-0.0104 J0.0227 F135.
N10825 G1 X4.8454 Y0.068
N10830 G3 X4.8316 Y0.0843 I-0.0241 J-0.0065
N10835 X4.8221 Y0.0865 I-0.0104 J-0.0227 F30.
N10840 G1 X4.8023 F45.5
N10845 X4.7963 Y0.0862
N10850 X4.7904 Y0.0849
N10855 X4.7848 Y0.0829
N10860 X4.7794 Y0.0803
N10865 X4.7743 Y0.0771
N10870 X4.7694 Y0.0735
N10875 X4.7649 Y0.0696
N10880 X4.7607 Y0.0654
N10885 X4.7568 Y0.0608
N10890 X4.7531 Y0.056
N10895 X4.7498 Y0.051
N10900 X4.7468 Y0.0458
N10905 X4.7441 Y0.0405
N10910 X4.7418 Y0.035
N10915 X4.7397 Y0.0293
N10920 X4.738 Y0.0236
N10925 X4.7366 Y0.0177
N10930 X4.7355 Y0.0118
N10935 X4.7348 Y0.0059
N10940 X4.7344 Y-0.0001
N10945 Y-0.0061
N10950 X4.7347 Y-0.0121
N10955 X4.7354 Y-0.0181
N10960 X4.739 Y-0.032
N10965 X4.7449 Y-0.045
N10970 X4.7531 Y-0.0569
N10975 X4.7632 Y-0.0671
N10980 X4.775 Y-0.0754
N10985 X4.788 Y-0.0815
N10990 X4.8018 Y-0.0852
N10995 X4.8162 Y-0.0865
N11000 X4.8349
N11005 G3 X4.8444 Y-0.0843 I-0.0009 J0.025 F30.
N11010 X4.8582 Y-0.0551 I-0.0104 J0.0227 F135.
N11015 G1 X4.8256 Y0.0679
N11020 G3 X4.8118 Y0.0843 I-0.0242 J-0.0064
N11025 X4.8023 Y0.0865 I-0.0104 J-0.0227 F30.
N11030 G1 X4.783 F45.5
N11035 X4.777 Y0.0862
N11040 X4.7712 Y0.0849
N11045 X4.7655 Y0.0829
N11050 X4.7602 Y0.0802
N11055 X4.755 Y0.077
N11060 X4.7502 Y0.0735
N11065 X4.7457 Y0.0695
N11070 X4.7415 Y0.0653
N11075 X4.7376 Y0.0607
N11080 X4.734 Y0.0559
N11085 X4.7307 Y0.0509
N11090 X4.7277 Y0.0457
N11095 X4.725 Y0.0403
N11100 X4.7226 Y0.0348
N11105 X4.7206 Y0.0292
N11110 X4.7188 Y0.0234
N11115 X4.7174 Y0.0176
N11120 X4.7164 Y0.0117
N11125 X4.7157 Y0.0057
N11130 X4.7153 Y-0.0002
N11135 Y-0.0062
N11140 X4.7156 Y-0.0122
N11145 X4.7163 Y-0.0182
N11150 X4.72 Y-0.0321
N11155 X4.7261 Y-0.0452
N11160 X4.7344 Y-0.057
N11165 X4.7446 Y-0.0672
N11170 X4.7564 Y-0.0754
N11175 X4.7695 Y-0.0815
N11180 X4.7834 Y-0.0852
N11185 X4.7978 Y-0.0865
N11190 X4.8162
N11195 G3 X4.8256 Y-0.0843 I-0.0009 J0.025 F30.
N11200 X4.8394 Y-0.055 I-0.0104 J0.0227 F135.
N11205 G1 X4.8063 Y0.068
N11210 G3 X4.7925 Y0.0843 I-0.0241 J-0.0065
N11215 X4.783 Y0.0865 I-0.0104 J-0.0227 F30.
N11220 G1 X4.765 F45.5
N11225 X4.759 Y0.0862
N11230 X4.7531 Y0.0851
N11235 X4.7474 Y0.0832
N11240 X4.742 Y0.0806
N11245 X4.7368 Y0.0776
N11250 X4.732 Y0.074
N11255 X4.7274 Y0.0702
N11260 X4.7231 Y0.066
N11265 X4.7191 Y0.0615
N11270 X4.7155 Y0.0567
N11275 X4.7121 Y0.0517
N11280 X4.7091 Y0.0466
N11285 X4.7063 Y0.0412
N11290 X4.7039 Y0.0357
N11295 X4.7018 Y0.0301
N11300 X4.7 Y0.0244
N11305 X4.6986 Y0.0186
N11310 X4.6975 Y0.0127
N11315 X4.6967 Y0.0067
N11320 X4.6963 Y0.0007
N11325 X4.6962 Y-0.0053
N11330 X4.6965 Y-0.0113
N11335 X4.6971 Y-0.0172
N11340 X4.6982 Y-0.0231
N11345 X4.7031 Y-0.038
N11350 X4.7108 Y-0.0516
N11355 X4.7209 Y-0.0635
N11360 X4.7331 Y-0.0733
N11365 X4.747 Y-0.0805
N11370 X4.762 Y-0.085
N11375 X4.7776 Y-0.0865
N11380 X4.7978
N11385 G3 X4.8073 Y-0.0843 I-0.0009 J0.025 F30.
N11390 X4.8211 Y-0.0551 I-0.0104 J0.0227 F135.
N11395 G1 X4.7883 Y0.0679
N11400 G3 X4.7745 Y0.0843 I-0.0242 J-0.0064
N11405 X4.765 Y0.0865 I-0.0104 J-0.0227 F30.
N11410 G1 X4.7452 F45.5
N11415 X4.7392 Y0.0862
N11420 X4.7333 Y0.085
N11425 X4.7277 Y0.0829
N11430 X4.7223 Y0.0803
N11435 X4.7171 Y0.0772
N11440 X4.7123 Y0.0736
N11445 X4.7078 Y0.0697
N11450 X4.7035 Y0.0655
N11455 X4.6996 Y0.0609
N11460 X4.696 Y0.0561
N11465 X4.6927 Y0.0511
N11470 X4.6897 Y0.046
N11475 X4.687 Y0.0406
N11480 X4.6846 Y0.0351
N11485 X4.6825 Y0.0294
N11490 X4.6808 Y0.0237
N11495 X4.6794 Y0.0179
N11500 X4.6783 Y0.012
N11505 X4.6775 Y0.006
N11510 X4.6772 Y0.
N11515 X4.6771 Y-0.006
N11520 X4.6774 Y-0.012
N11525 X4.6781 Y-0.0179
N11530 X4.6782 Y-0.0187
N11535 X4.6817 Y-0.0325
N11540 X4.6876 Y-0.0454
N11545 X4.6957 Y-0.0572
N11550 X4.7057 Y-0.0673
N11555 X4.7173 Y-0.0755
N11560 X4.7302 Y-0.0815
N11565 X4.7439 Y-0.0852
N11570 X4.7581 Y-0.0865
N11575 X4.7776
N11580 G3 X4.7871 Y-0.0843 I-0.0009 J0.025 F30.
N11585 X4.8009 Y-0.0551 I-0.0104 J0.0227 F135.
N11590 G1 X4.7685 Y0.0679
N11595 G3 X4.7547 Y0.0843 I-0.0242 J-0.0064
N11600 X4.7452 Y0.0865 I-0.0104 J-0.0227 F30.
N11605 G1 X4.7265 F45.5
N11610 X4.7205 Y0.0862
N11615 X4.7146 Y0.085
N11620 X4.7089 Y0.0831
N11625 X4.7035 Y0.0805
N11630 X4.6984 Y0.0774
N11635 X4.6935 Y0.0738
N11640 X4.689 Y0.0699
N11645 X4.6847 Y0.0657
N11650 X4.6808 Y0.0612
N11655 X4.6771 Y0.0564
N11660 X4.6738 Y0.0515
N11665 X4.6707 Y0.0463
N11670 X4.668 Y0.0409
N11675 X4.6656 Y0.0354
N11680 X4.6635 Y0.0298
N11685 X4.6618 Y0.0241
N11690 X4.6603 Y0.0182
N11695 X4.6592 Y0.0123
N11700 X4.6585 Y0.0064
N11705 X4.658 Y0.0004
N11710 Y-0.0056
N11715 X4.6582 Y-0.0116
N11720 X4.6588 Y-0.0176
N11725 X4.6625 Y-0.0316
N11730 X4.6685 Y-0.0447
N11735 X4.6767 Y-0.0566
N11740 X4.6869 Y-0.0669
N11745 X4.6987 Y-0.0753
N11750 X4.7118 Y-0.0814
N11755 X4.7258 Y-0.0852
N11760 X4.7402 Y-0.0865
N11765 X4.7581
N11770 G3 X4.7676 Y-0.0843 I-0.0009 J0.025 F30.
N11775 X4.7814 Y-0.0553 I-0.0104 J0.0227 F135.
N11780 G1 X4.7498 Y0.0677
N11785 G3 X4.736 Y0.0843 I-0.0242 J-0.0062
N11790 X4.7265 Y0.0865 I-0.0104 J-0.0227 F30.
N11795 G1 X4.7068 F45.5
N11800 X4.7008 Y0.0862
N11805 X4.6949 Y0.0849
N11810 X4.6893 Y0.0829
N11815 X4.6839 Y0.0802
N11820 X4.6788 Y0.0771
N11825 X4.674 Y0.0735
N11830 X4.6694 Y0.0696
N11835 X4.6652 Y0.0653
N11840 X4.6613 Y0.0608
N11845 X4.6577 Y0.056
N11850 X4.6544 Y0.051
N11855 X4.6514 Y0.0458
N11860 X4.6487 Y0.0404
N11865 X4.6463 Y0.0349
N11870 X4.6442 Y0.0293
N11875 X4.6425 Y0.0235
N11880 X4.6411 Y0.0177
N11885 X4.64 Y0.0118
N11890 X4.6393 Y0.0058
N11895 X4.6389 Y-0.0002
N11900 Y-0.0062
N11905 X4.6392 Y-0.0121
N11910 X4.6399 Y-0.0181
N11915 X4.6437 Y-0.032
N11920 X4.6498 Y-0.0451
N11925 X4.6581 Y-0.0569
N11930 X4.6683 Y-0.0671
N11935 X4.6802 Y-0.0754
N11940 X4.6933 Y-0.0815
N11945 X4.7072 Y-0.0852
N11950 X4.7216 Y-0.0865
N11955 X4.7402
N11960 G3 X4.7497 Y-0.0843 I-0.0009 J0.025 F30.
N11965 X4.7635 Y-0.0549 I-0.0104 J0.0227 F135.
N11970 G1 X4.73 Y0.0681
N11975 G3 X4.7163 Y0.0843 I-0.0241 J-0.0066
N11980 X4.7068 Y0.0865 I-0.0104 J-0.0227 F30.
N11985 G1 X4.6873 F45.5
N11990 X4.6813 Y0.0862
N11995 X4.6754 Y0.0848
N12000 X4.6698 Y0.0827
N12005 X4.6644 Y0.0801
N12010 X4.6593 Y0.0769
N12015 X4.6545 Y0.0733
N12020 X4.65 Y0.0693
N12025 X4.6458 Y0.065
N12030 X4.6419 Y0.0605
N12035 X4.6383 Y0.0557
N12040 X4.635 Y0.0507
N12045 X4.6321 Y0.0455
N12050 X4.6294 Y0.0401
N12055 X4.627 Y0.0346
N12060 X4.625 Y0.0289
N12065 X4.6233 Y0.0232
N12070 X4.6219 Y0.0173
N12075 X4.6209 Y0.0114
N12080 X4.6202 Y0.0054
N12085 X4.6199 Y-0.0005
N12090 Y-0.0065
N12095 X4.6203 Y-0.0125
N12100 X4.621 Y-0.0185
N12105 X4.6221 Y-0.0244
N12110 X4.6271 Y-0.039
N12115 X4.6348 Y-0.0524
N12120 X4.6449 Y-0.064
N12125 X4.657 Y-0.0736
N12130 X4.6707 Y-0.0807
N12135 X4.6855 Y-0.085
N12140 X4.7009 Y-0.0865
N12145 X4.7216
N12150 G3 X4.7311 Y-0.0843 I-0.0009 J0.025 F30.
N12155 X4.7448 Y-0.0548 I-0.0104 J0.0227 F135.
N12160 G1 X4.7105 Y0.0682
N12165 G3 X4.6967 Y0.0843 I-0.0241 J-0.0067
N12170 X4.6873 Y0.0865 I-0.0104 J-0.0227 F30.
N12175 G1 X4.6692 F45.5
N12180 X4.6632 Y0.0862
N12185 X4.6573 Y0.085
N12190 X4.6516 Y0.0831
N12195 X4.6462 Y0.0805
N12200 X4.6349 Y0.072
N12205 X4.6256 Y0.0614
N12210 X4.6187 Y0.0491
N12215 X4.6144 Y0.0356
N12220 X4.6129 Y0.0216
N12225 G3 X4.6152 Y0.0121 I0.025 J0.0009 F30.
N12230 X4.6577 Y0.0071 I0.0227 J0.0104 F135.
N12235 G1 X4.688 Y0.0462
N12240 G3 X4.6787 Y0.0843 I-0.0197 J0.0153
N12245 X4.6692 Y0.0865 I-0.0104 J-0.0227 F30.
N12250 G1 X4.6516 F45.5
N12255 X4.6456 Y0.0862
N12260 X4.6368 Y0.0833
N12265 X4.6288 Y0.0785
N12270 X4.6222 Y0.072
N12275 X4.6171 Y0.0642
N12280 X4.614 Y0.0554
N12285 X4.6129 Y0.0462
N12290 G3 X4.6146 Y0.0365 I0.0376 J0.0013 F30.
N12295 X4.6616 Y0.0116 I0.0359 J0.011 F135.
N12300 X4.6613 Y0.0849 I-0.0113 J0.0366
N12305 X4.6516 Y0.0865 I-0.011 J-0.0367 F30.
N12310 G1 X4.6375 F45.5
N12315 X4.6333 Y0.086
N12320 X4.6291 Y0.0847
N12325 X4.6271 Y0.0838
N12330 X4.625 Y0.0826
N12335 X4.6227 Y0.081
N12340 X4.6205 Y0.0789
N12345 X4.6183 Y0.0766
N12350 X4.6167 Y0.0742
N12355 X4.6148 Y0.0706
N12360 X4.6135 Y0.0665
N12365 X4.613 Y0.0623
N12370 X4.6129 Y0.0457
N12375 Y-0.0253
N12380 X4.6132 Y-0.0313
N12385 X4.614 Y-0.0373
N12390 X4.6178 Y-0.0488
N12395 X4.6238 Y-0.0594
N12400 X4.6317 Y-0.0687
N12405 X4.6412 Y-0.0762
N12410 X4.652 Y-0.0819
N12415 X4.6637 Y-0.0853
N12420 X4.6758 Y-0.0865
N12425 G3 X4.6853 Y-0.0843 I-0.0009 J0.025 F30.
N12430 X4.6922 Y-0.0434 I-0.0104 J0.0227 F135.
N12435 G1 X4.6552 Y-0.0081
N12440 G3 X4.6152 Y-0.0159 I-0.0173 J-0.0181
N12445 X4.6129 Y-0.0253 I0.0227 J-0.0104 F30.
N12450 G1 Y-0.0482 F45.5
N12455 X4.6132 Y-0.0542
N12460 X4.6145 Y-0.0601
N12465 X4.619 Y-0.0688
N12470 X4.6255 Y-0.0762
N12475 X4.6336 Y-0.0818
N12480 X4.6427 Y-0.0853
N12485 X4.6525 Y-0.0865
N12490 G3 X4.6622 Y-0.0849 I-0.0013 J0.0371 F30.
N12495 X4.6868 Y-0.0388 I-0.0109 J0.0355 F135.
N12500 X4.6146 Y-0.0386 I-0.0362 J-0.0108
N12505 X4.6129 Y-0.0482 I0.0361 J-0.011 F30.
N12510 G1 X4.613 Y-0.0623 F45.5
N12515 X4.6135 Y-0.0665
N12520 X4.6148 Y-0.0706
N12525 X4.6167 Y-0.0742
N12530 X4.6183 Y-0.0766
N12535 X4.6205 Y-0.0789
N12540 X4.6227 Y-0.081
N12545 X4.625 Y-0.0826
N12550 X4.6271 Y-0.0838
N12555 X4.6291 Y-0.0847
N12560 X4.6333 Y-0.086
N12565 X4.6375 Y-0.0865
N12570 X4.7009
N12575 G3 X4.7104 Y-0.0843 I-0.0009 J0.025 F30.
N12580 G1 X4.714 Y-0.0826 Z-0.1997
N12585 X4.7174 Y-0.081 Z-0.1988
N12590 X4.7207 Y-0.0795 Z-0.1973
N12595 X4.7238 Y-0.0782 Z-0.1952
N12600 X4.7265 Y-0.0769 Z-0.1927
N12605 X4.7288 Y-0.0759 Z-0.1897
N12610 X4.7307 Y-0.075 Z-0.1863
N12615 X4.732 Y-0.0744 Z-0.1827
N12620 X4.7329 Y-0.074 Z-0.1789
N12625 X4.7332 Y-0.0739 Z-0.175
N12630 G0 Z0.6
N12640 M9
N12645 G53 Z0.
N12650 M30
%
